;FLAVOR:Marlin
;TIME:1347
;Filament used: 1.624m
;Layer height: 0.2
;MINX:186.6
;MINY:156.6
;MINZ:0.2
;MAXX:215.4
;MAXY:245.4
;MAXZ:4
;Generated with Cura_SteamEngine 5.2.1
M140 S60
M105
M190 S60
M104 S180
M105
M109 S180
M82 ;absolute extrusion mode
; Anycubic Kobra Max
G28 ;Home
G1 Z15.0 F1200 ;Move the platform down 15mm
;Prime the extruder
G92 E0
G1 F200 E3
G92 E0
G92 E0
G92 E0
G1 F2400 E-6
;LAYER_COUNT:20
;LAYER:0
M107
M204 S3000
M205 X10 Y10
G1 F1200 Z0.275
G0 F6000 X187.61 Y158.216 Z0.275
M204 S1000
M205 X8 Y8
;TYPE:SKIRT
G1 F1200 Z0.2
G1 F2400 E0
G1 X188.016 Y157.784 E0.03147
G1 X188.477 Y157.411 E0.06295
G1 X188.984 Y157.103 E0.09444
G1 X189.527 Y156.866 E0.12589
G1 X190.098 Y156.704 E0.1574
G1 X190.979 Y156.6 E0.20449
G1 X210.356 Y156.6 E1.23308
G1 X211.054 Y156.61 E1.27013
G1 X211.645 Y156.659 E1.30161
G1 X212.224 Y156.786 E1.33308
G1 X212.781 Y156.99 E1.36457
G1 X213.305 Y157.268 E1.39606
G1 X213.787 Y157.613 E1.42752
G1 X214.219 Y158.02 E1.45903
G1 X214.591 Y158.481 E1.49047
G1 X214.899 Y158.988 E1.52196
G1 X215.135 Y159.532 E1.55344
G1 X215.296 Y160.102 E1.58488
G1 X215.4 Y160.979 E1.63176
G1 X215.4 Y240.318 E5.84333
G1 X215.391 Y241.045 E5.88192
G1 X215.343 Y241.637 E5.91345
G1 X215.217 Y242.216 E5.9449
G1 X215.014 Y242.773 E5.97637
G1 X214.738 Y243.298 E6.00786
G1 X214.394 Y243.781 E6.03934
G1 X213.988 Y244.213 E6.07081
G1 X213.527 Y244.586 E6.10229
G1 X213.021 Y244.895 E6.13376
G1 X212.478 Y245.132 E6.16521
G1 X211.907 Y245.295 E6.19673
G1 X211.021 Y245.4 E6.24409
G1 X191.65 Y245.4 E7.27236
G1 X190.952 Y245.391 E7.30942
G1 X190.361 Y245.343 E7.34089
G1 X189.782 Y245.216 E7.37236
G1 X189.225 Y245.013 E7.40383
G1 X188.7 Y244.737 E7.43532
G1 X188.218 Y244.392 E7.46678
G1 X187.786 Y243.986 E7.49825
G1 X187.412 Y243.525 E7.52976
G1 X187.104 Y243.019 E7.56121
G1 X186.867 Y242.475 E7.59271
G1 X186.705 Y241.905 E7.62416
G1 X186.6 Y241.017 E7.67163
G1 X186.6 Y161.614 E11.88659
G1 X186.609 Y160.949 E11.92189
G1 X186.657 Y160.358 E11.95337
G1 X186.784 Y159.779 E11.98484
G1 X186.988 Y159.222 E12.01632
G1 X187.265 Y158.698 E12.04779
G1 X187.61 Y158.216 E12.07925
M204 S3000
M205 X10 Y10
G0 F6000 X188.161 Y158.433
M204 S1000
M205 X8 Y8
G1 F2400 X188.562 Y158.05 E12.10869
G1 X189.013 Y157.729 E12.13807
G1 X189.505 Y157.476 E12.16744
G1 X190.029 Y157.296 E12.19685
G1 X190.574 Y157.194 E12.22628
G1 X191.33 Y157.16 E12.26645
G1 X210.348 Y157.16 E13.27599
G1 X211.046 Y157.17 E13.31305
G1 X211.598 Y157.218 E13.34246
G1 X212.137 Y157.345 E13.37185
G1 X212.652 Y157.548 E13.40124
G1 X213.133 Y157.823 E13.43065
G1 X213.569 Y158.164 E13.46003
G1 X213.952 Y158.565 E13.48947
G1 X214.273 Y159.016 E13.51885
G1 X214.526 Y159.509 E13.54827
G1 X214.705 Y160.033 E13.57766
G1 X214.807 Y160.578 E13.6071
G1 X214.84 Y161.33 E13.64705
G1 X214.84 Y240.312 E17.83967
G1 X214.831 Y241.039 E17.87826
G1 X214.784 Y241.59 E17.90762
G1 X214.658 Y242.13 E17.93705
G1 X214.456 Y242.646 E17.96647
G1 X214.182 Y243.127 E17.99585
G1 X213.842 Y243.564 E18.02524
G1 X213.442 Y243.947 E18.05464
G1 X212.991 Y244.269 E18.08406
G1 X212.499 Y244.523 E18.11345
G1 X211.975 Y244.703 E18.14286
G1 X211.431 Y244.806 E18.17225
G1 X210.67 Y244.84 E18.21269
G1 X191.657 Y244.84 E19.22196
G1 X190.959 Y244.831 E19.25901
G1 X190.408 Y244.784 E19.28837
G1 X189.868 Y244.658 E19.3178
G1 X189.353 Y244.455 E19.34719
G1 X188.871 Y244.181 E19.37662
G1 X188.435 Y243.84 E19.406
G1 X188.052 Y243.44 E19.4354
G1 X187.73 Y242.989 E19.46481
G1 X187.477 Y242.497 E19.49418
G1 X187.297 Y241.973 E19.52359
G1 X187.194 Y241.429 E19.55298
G1 X187.161 Y240.762 E19.58843
G1 X187.16 Y161.622 E23.78944
G1 X187.169 Y160.957 E23.82474
G1 X187.217 Y160.405 E23.85415
G1 X187.343 Y159.866 E23.88353
G1 X187.546 Y159.35 E23.91297
G1 X187.82 Y158.869 E23.94235
G1 X188.161 Y158.433 E23.97174
M204 S3000
M205 X10 Y10
G0 F6000 X188.711 Y158.668
M204 S1000
M205 X8 Y8
G1 F2400 X189.103 Y158.339 E23.9989
G1 X189.542 Y158.075 E24.0261
G1 X190.016 Y157.883 E24.05324
G1 X190.514 Y157.766 E24.0804
G1 X191.018 Y157.721 E24.10726
G1 X210.34 Y157.72 E25.13293
G1 X211.038 Y157.73 E25.16999
G1 X211.548 Y157.778 E25.19718
G1 X212.044 Y157.904 E25.22434
G1 X212.514 Y158.105 E25.25148
G1 X212.948 Y158.378 E25.2787
G1 X213.333 Y158.714 E25.30582
G1 X213.662 Y159.106 E25.33299
G1 X213.926 Y159.545 E25.36018
G1 X214.118 Y160.02 E25.38738
G1 X214.234 Y160.518 E25.41452
G1 X214.279 Y161.018 E25.44117
G1 X214.28 Y240.305 E29.64997
G1 X214.271 Y241.032 E29.68857
G1 X214.224 Y241.541 E29.7157
G1 X214.099 Y242.038 E29.74291
G1 X213.899 Y242.509 E29.77007
G1 X213.627 Y242.943 E29.79726
G1 X213.292 Y243.329 E29.82439
G1 X212.9 Y243.658 E29.85156
G1 X212.462 Y243.923 E29.87873
G1 X211.988 Y244.116 E29.9059
G1 X211.489 Y244.233 E29.9331
G1 X210.984 Y244.279 E29.96002
G1 X191.665 Y244.28 E30.98554
G1 X190.967 Y244.271 E31.02259
G1 X190.457 Y244.224 E31.04978
G1 X189.961 Y244.099 E31.07693
G1 X189.49 Y243.898 E31.10412
G1 X189.056 Y243.626 E31.1313
G1 X188.67 Y243.29 E31.15847
G1 X188.341 Y242.898 E31.18564
G1 X188.076 Y242.46 E31.21281
G1 X187.884 Y241.986 E31.23996
G1 X187.767 Y241.488 E31.26711
G1 X187.721 Y240.981 E31.29414
G1 X187.72 Y161.63 E35.50634
G1 X187.729 Y160.965 E35.54164
G1 X187.776 Y160.455 E35.56883
G1 X187.902 Y159.959 E35.596
G1 X188.103 Y159.488 E35.62318
G1 X188.375 Y159.054 E35.65037
G1 X188.711 Y158.668 E35.67753
M204 S3000
M205 X10 Y10
G1 F2400 E29.67753
;MESH:Deckel-H1-V03.stl
G0 F6000 X191.414 Y160.335
G0 X191.414 Y161.414
G0 X192.4 Y162.4
M204 S1000
M205 X8 Y8
;TYPE:WALL-INNER
G1 F2400 E35.67753
G1 F2700 X192.4 Y239.6 E39.77555
G1 X209.6 Y239.6 E40.68859
G1 X209.6 Y171 E44.33009
G1 X209.6 Y162.4 E44.78661
G1 X192.4 Y162.4 E45.69964
M204 S3000
M205 X10 Y10
G0 F6000 X191.84 Y161.84
M204 S1000
M205 X8 Y8
G1 F2700 X191.84 Y240.16 E49.85711
G1 X210.16 Y240.16 E50.8296
G1 X210.16 Y171 E54.50083
G1 X210.16 Y161.84 E54.98707
G1 X191.84 Y161.84 E55.95955
M204 S3000
M205 X10 Y10
G0 F6000 X191.28 Y161.28
M204 S1000
M205 X8 Y8
;TYPE:WALL-OUTER
G1 F2700 X191.28 Y240.72 E60.17648
G1 X210.72 Y240.72 E61.20842
G1 X210.72 Y171 E64.90938
G1 X210.72 Y161.28 E65.42535
G1 X191.28 Y161.28 E66.45728
M204 S3000
M205 X10 Y10
G0 F6000 X191.28 Y161.48
G0 X191.87 Y161.87
G0 X192.94 Y162.94
M204 S1000
M205 X8 Y8
;TYPE:SKIN
G1 F2700 X192.94 Y239.06 E70.49797
G1 X209.06 Y239.06 E71.35367
G1 X209.06 Y171 E74.96652
G1 X209.06 Y162.94 E75.39437
G1 X192.94 Y162.94 E76.25007
M204 S3000
M205 X10 Y10
G0 F6000 X208.779 Y163.637
M204 S1000
M205 X8 Y8
G1 F2700 X208.361 Y163.22 E76.28141
M204 S3000
M205 X10 Y10
G0 F6000 X207.569 Y163.22
M204 S1000
M205 X8 Y8
G1 F2700 X208.779 Y164.429 E76.37221
M204 S3000
M205 X10 Y10
G0 F6000 X208.779 Y165.221
M204 S1000
M205 X8 Y8
G1 F2700 X206.777 Y163.22 E76.52246
M204 S3000
M205 X10 Y10
G0 F6000 X205.985 Y163.22
M204 S1000
M205 X8 Y8
G1 F2700 X208.779 Y166.013 E76.73217
M204 S3000
M205 X10 Y10
G0 F6000 X208.779 Y166.805
M204 S1000
M205 X8 Y8
G1 F2700 X205.193 Y163.22 E77.00134
M204 S3000
M205 X10 Y10
G0 F6000 X204.401 Y163.22
M204 S1000
M205 X8 Y8
G1 F2700 X208.779 Y167.597 E77.32996
M204 S3000
M205 X10 Y10
G0 F6000 X208.779 Y168.389
M204 S1000
M205 X8 Y8
G1 F2700 X203.609 Y163.22 E77.71804
M204 S3000
M205 X10 Y10
G0 F6000 X202.818 Y163.22
M204 S1000
M205 X8 Y8
G1 F2700 X208.779 Y169.181 E78.16554
M204 S3000
M205 X10 Y10
G0 F6000 X208.779 Y169.973
M204 S1000
M205 X8 Y8
G1 F2700 X202.026 Y163.22 E78.67249
M204 S3000
M205 X10 Y10
G0 F6000 X201.234 Y163.22
M204 S1000
M205 X8 Y8
G1 F2700 X208.779 Y170.765 E79.2389
M204 S3000
M205 X10 Y10
G0 F6000 X208.779 Y171.557
M204 S1000
M205 X8 Y8
G1 F2700 X200.442 Y163.22 E79.86477
M204 S3000
M205 X10 Y10
G0 F6000 X199.65 Y163.22
M204 S1000
M205 X8 Y8
G1 F2700 X208.779 Y172.349 E80.55009
M204 S3000
M205 X10 Y10
G0 F6000 X208.779 Y173.141
M204 S1000
M205 X8 Y8
G1 F2700 X198.858 Y163.22 E81.29487
M204 S3000
M205 X10 Y10
G0 F6000 X198.066 Y163.22
M204 S1000
M205 X8 Y8
G1 F2700 X208.779 Y173.933 E82.09911
M204 S3000
M205 X10 Y10
G0 F6000 X208.779 Y174.725
M204 S1000
M205 X8 Y8
G1 F2700 X197.274 Y163.22 E82.9628
M204 S3000
M205 X10 Y10
G0 F6000 X196.482 Y163.22
M204 S1000
M205 X8 Y8
G1 F2700 X208.779 Y175.517 E83.88595
M204 S3000
M205 X10 Y10
G0 F6000 X208.779 Y176.309
M204 S1000
M205 X8 Y8
G1 F2700 X195.69 Y163.22 E84.86855
M204 S3000
M205 X10 Y10
G0 F6000 X194.898 Y163.22
M204 S1000
M205 X8 Y8
G1 F2700 X208.779 Y177.101 E85.91061
M204 S3000
M205 X10 Y10
G0 F6000 X208.779 Y177.893
M204 S1000
M205 X8 Y8
G1 F2700 X194.106 Y163.22 E87.01212
M204 S3000
M205 X10 Y10
G0 F6000 X193.314 Y163.22
M204 S1000
M205 X8 Y8
G1 F2700 X208.779 Y178.685 E88.1731
M204 S3000
M205 X10 Y10
G0 F6000 X208.779 Y179.477
M204 S1000
M205 X8 Y8
G1 F2700 X193.219 Y163.917 E89.3412
M204 S3000
M205 X10 Y10
G0 F6000 X193.219 Y164.709
M204 S1000
M205 X8 Y8
G1 F2700 X208.779 Y180.269 E90.5093
M204 S3000
M205 X10 Y10
G0 F6000 X208.779 Y181.061
M204 S1000
M205 X8 Y8
G1 F2700 X193.219 Y165.501 E91.67741
M204 S3000
M205 X10 Y10
G0 F6000 X193.219 Y166.293
M204 S1000
M205 X8 Y8
G1 F2700 X208.779 Y181.853 E92.84551
M204 S3000
M205 X10 Y10
G0 F6000 X208.779 Y182.644
M204 S1000
M205 X8 Y8
G1 F2700 X193.219 Y167.085 E94.01358
M204 S3000
M205 X10 Y10
G0 F6000 X193.219 Y167.877
M204 S1000
M205 X8 Y8
G1 F2700 X208.779 Y183.436 E95.18165
M204 S3000
M205 X10 Y10
G0 F6000 X208.779 Y184.228
M204 S1000
M205 X8 Y8
G1 F2700 X193.219 Y168.669 E96.34971
M204 S3000
M205 X10 Y10
G0 F6000 X193.219 Y169.46
M204 S1000
M205 X8 Y8
G1 F2700 X208.779 Y185.02 E97.51782
M204 S3000
M205 X10 Y10
G0 F6000 X208.779 Y185.812
M204 S1000
M205 X8 Y8
G1 F2700 X193.219 Y170.252 E98.68592
M204 S3000
M205 X10 Y10
G0 F6000 X193.219 Y171.044
M204 S1000
M205 X8 Y8
G1 F2700 X208.779 Y186.604 E99.85402
M204 S3000
M205 X10 Y10
G0 F6000 X208.779 Y187.396
M204 S1000
M205 X8 Y8
G1 F2700 X193.219 Y171.836 E101.02213
M204 S3000
M205 X10 Y10
G0 F6000 X193.219 Y172.628
M204 S1000
M205 X8 Y8
G1 F2700 X208.779 Y188.188 E102.19023
M204 S3000
M205 X10 Y10
G0 F6000 X208.779 Y188.98
M204 S1000
M205 X8 Y8
G1 F2700 X193.219 Y173.42 E103.35834
M204 S3000
M205 X10 Y10
G0 F6000 X193.219 Y174.212
M204 S1000
M205 X8 Y8
G1 F2700 X208.779 Y189.772 E104.52644
M204 S3000
M205 X10 Y10
G0 F6000 X208.779 Y190.564
M204 S1000
M205 X8 Y8
G1 F2700 X193.219 Y175.004 E105.69454
M204 S3000
M205 X10 Y10
G0 F6000 X193.219 Y175.796
M204 S1000
M205 X8 Y8
G1 F2700 X208.779 Y191.356 E106.86265
M204 S3000
M205 X10 Y10
G0 F6000 X208.779 Y192.148
M204 S1000
M205 X8 Y8
G1 F2700 X193.219 Y176.588 E108.03075
M204 S3000
M205 X10 Y10
G0 F6000 X193.219 Y177.38
M204 S1000
M205 X8 Y8
G1 F2700 X208.779 Y192.94 E109.19886
M204 S3000
M205 X10 Y10
G0 F6000 X208.779 Y193.732
M204 S1000
M205 X8 Y8
G1 F2700 X193.219 Y178.172 E110.36696
M204 S3000
M205 X10 Y10
G0 F6000 X193.219 Y178.964
M204 S1000
M205 X8 Y8
G1 F2700 X208.779 Y194.524 E111.53506
M204 S3000
M205 X10 Y10
G0 F6000 X208.779 Y195.316
M204 S1000
M205 X8 Y8
G1 F2700 X193.219 Y179.756 E112.70317
M204 S3000
M205 X10 Y10
G0 F6000 X193.219 Y180.548
M204 S1000
M205 X8 Y8
G1 F2700 X208.779 Y196.108 E113.87127
M204 S3000
M205 X10 Y10
G0 F6000 X208.779 Y196.9
M204 S1000
M205 X8 Y8
G1 F2700 X193.219 Y181.34 E115.03937
M204 S3000
M205 X10 Y10
G0 F6000 X193.219 Y182.132
M204 S1000
M205 X8 Y8
G1 F2700 X208.779 Y197.692 E116.20748
M204 S3000
M205 X10 Y10
G0 F6000 X208.779 Y198.484
M204 S1000
M205 X8 Y8
G1 F2700 X193.219 Y182.924 E117.37558
M204 S3000
M205 X10 Y10
G0 F6000 X193.219 Y183.716
M204 S1000
M205 X8 Y8
G1 F2700 X208.779 Y199.276 E118.54369
M204 S3000
M205 X10 Y10
G0 F6000 X208.779 Y200.068
M204 S1000
M205 X8 Y8
G1 F2700 X193.219 Y184.508 E119.71179
M204 S3000
M205 X10 Y10
G0 F6000 X193.219 Y185.3
M204 S1000
M205 X8 Y8
G1 F2700 X208.779 Y200.86 E120.87989
M204 S3000
M205 X10 Y10
G0 F6000 X208.779 Y201.652
M204 S1000
M205 X8 Y8
G1 F2700 X193.219 Y186.092 E122.048
M204 S3000
M205 X10 Y10
G0 F6000 X193.219 Y186.884
M204 S1000
M205 X8 Y8
G1 F2700 X208.779 Y202.443 E123.21606
M204 S3000
M205 X10 Y10
G0 F6000 X208.779 Y203.235
M204 S1000
M205 X8 Y8
G1 F2700 X193.219 Y187.676 E124.38413
M204 S3000
M205 X10 Y10
G0 F6000 X193.219 Y188.467
M204 S1000
M205 X8 Y8
G1 F2700 X208.779 Y204.027 E125.55224
M204 S3000
M205 X10 Y10
G0 F6000 X208.779 Y204.819
M204 S1000
M205 X8 Y8
G1 F2700 X193.219 Y189.259 E126.72034
M204 S3000
M205 X10 Y10
G0 F6000 X193.219 Y190.051
M204 S1000
M205 X8 Y8
G1 F2700 X208.779 Y205.611 E127.88844
M204 S3000
M205 X10 Y10
G0 F6000 X208.779 Y206.403
M204 S1000
M205 X8 Y8
G1 F2700 X193.219 Y190.843 E129.05655
M204 S3000
M205 X10 Y10
G0 F6000 X193.219 Y191.635
M204 S1000
M205 X8 Y8
G1 F2700 X208.779 Y207.195 E130.22465
M204 S3000
M205 X10 Y10
G0 F6000 X208.779 Y207.987
M204 S1000
M205 X8 Y8
G1 F2700 X193.219 Y192.427 E131.39275
M204 S3000
M205 X10 Y10
G0 F6000 X193.219 Y193.219
M204 S1000
M205 X8 Y8
G1 F2700 X208.779 Y208.779 E132.56086
M204 S3000
M205 X10 Y10
G0 F6000 X208.779 Y209.571
M204 S1000
M205 X8 Y8
G1 F2700 X193.219 Y194.011 E133.72896
M204 S3000
M205 X10 Y10
G0 F6000 X193.219 Y194.803
M204 S1000
M205 X8 Y8
G1 F2700 X208.779 Y210.363 E134.89707
M204 S3000
M205 X10 Y10
G0 F6000 X208.779 Y211.155
M204 S1000
M205 X8 Y8
G1 F2700 X193.219 Y195.595 E136.06517
M204 S3000
M205 X10 Y10
G0 F6000 X193.219 Y196.387
M204 S1000
M205 X8 Y8
G1 F2700 X208.779 Y211.947 E137.23327
M204 S3000
M205 X10 Y10
G0 F6000 X208.779 Y212.739
M204 S1000
M205 X8 Y8
G1 F2700 X193.219 Y197.179 E138.40138
M204 S3000
M205 X10 Y10
G0 F6000 X193.219 Y197.971
M204 S1000
M205 X8 Y8
G1 F2700 X208.779 Y213.531 E139.56948
M204 S3000
M205 X10 Y10
G0 F6000 X208.779 Y214.323
M204 S1000
M205 X8 Y8
G1 F2700 X193.219 Y198.763 E140.73759
M204 S3000
M205 X10 Y10
G0 F6000 X193.219 Y199.555
M204 S1000
M205 X8 Y8
G1 F2700 X208.779 Y215.115 E141.90569
M204 S3000
M205 X10 Y10
G0 F6000 X208.779 Y215.907
M204 S1000
M205 X8 Y8
G1 F2700 X193.219 Y200.347 E143.07379
M204 S3000
M205 X10 Y10
G0 F6000 X193.219 Y201.139
M204 S1000
M205 X8 Y8
G1 F2700 X208.779 Y216.699 E144.2419
M204 S3000
M205 X10 Y10
G0 F6000 X208.779 Y217.491
M204 S1000
M205 X8 Y8
G1 F2700 X193.219 Y201.931 E145.41
M204 S3000
M205 X10 Y10
G0 F6000 X193.219 Y202.723
M204 S1000
M205 X8 Y8
G1 F2700 X208.779 Y218.283 E146.57811
M204 S3000
M205 X10 Y10
G0 F6000 X208.779 Y219.075
M204 S1000
M205 X8 Y8
G1 F2700 X193.219 Y203.515 E147.74621
M204 S3000
M205 X10 Y10
G0 F6000 X193.219 Y204.307
M204 S1000
M205 X8 Y8
G1 F2700 X208.779 Y219.867 E148.91431
M204 S3000
M205 X10 Y10
G0 F6000 X208.779 Y220.659
M204 S1000
M205 X8 Y8
G1 F2700 X193.219 Y205.099 E150.08242
M204 S3000
M205 X10 Y10
G0 F6000 X193.219 Y205.891
M204 S1000
M205 X8 Y8
G1 F2700 X208.779 Y221.45 E151.25048
M204 S3000
M205 X10 Y10
G0 F6000 X208.779 Y222.242
M204 S1000
M205 X8 Y8
G1 F2700 X193.219 Y206.683 E152.41855
M204 S3000
M205 X10 Y10
G0 F6000 X193.219 Y207.475
M204 S1000
M205 X8 Y8
G1 F2700 X208.779 Y223.034 E153.58662
M204 S3000
M205 X10 Y10
G0 F6000 X208.779 Y223.826
M204 S1000
M205 X8 Y8
G1 F2700 X193.219 Y208.266 E154.75472
M204 S3000
M205 X10 Y10
G0 F6000 X193.219 Y209.058
M204 S1000
M205 X8 Y8
G1 F2700 X208.779 Y224.618 E155.92282
M204 S3000
M205 X10 Y10
G0 F6000 X208.779 Y225.41
M204 S1000
M205 X8 Y8
G1 F2700 X193.219 Y209.85 E157.09093
M204 S3000
M205 X10 Y10
G0 F6000 X193.219 Y210.642
M204 S1000
M205 X8 Y8
G1 F2700 X208.779 Y226.202 E158.25903
M204 S3000
M205 X10 Y10
G0 F6000 X208.779 Y226.994
M204 S1000
M205 X8 Y8
G1 F2700 X193.219 Y211.434 E159.42714
M204 S3000
M205 X10 Y10
G0 F6000 X193.219 Y212.226
M204 S1000
M205 X8 Y8
G1 F2700 X208.779 Y227.786 E160.59524
M204 S3000
M205 X10 Y10
G0 F6000 X208.779 Y228.578
M204 S1000
M205 X8 Y8
G1 F2700 X193.219 Y213.018 E161.76334
M204 S3000
M205 X10 Y10
G0 F6000 X193.219 Y213.81
M204 S1000
M205 X8 Y8
G1 F2700 X208.779 Y229.37 E162.93145
M204 S3000
M205 X10 Y10
G0 F6000 X208.779 Y230.162
M204 S1000
M205 X8 Y8
G1 F2700 X193.219 Y214.602 E164.09955
M204 S3000
M205 X10 Y10
G0 F6000 X193.219 Y215.394
M204 S1000
M205 X8 Y8
G1 F2700 X208.779 Y230.954 E165.26766
M204 S3000
M205 X10 Y10
G0 F6000 X208.779 Y231.746
M204 S1000
M205 X8 Y8
G1 F2700 X193.219 Y216.186 E166.43576
M204 S3000
M205 X10 Y10
G0 F6000 X193.219 Y216.978
