;FLAVOR:Marlin
;TIME:5649
;Filament used: 10.6953m
;Layer height: 0.3
;MINX:130.6
;MINY:156.6
;MINZ:0.3
;MAXX:271.4
;MAXY:245.4
;MAXZ:22.8
;Generated with Cura_SteamEngine 5.2.1
M140 S60
M105
M190 S60
M104 S180
M105
M109 S180
M82 ;absolute extrusion mode
; Anycubic Kobra Max
G28 ;Home
G1 Z15.0 F1200 ;Move the platform down 15mm
;Prime the extruder
G92 E0
G1 F200 E3
G92 E0
G92 E0
G92 E0
G1 F2400 E-6
;LAYER_COUNT:76
;LAYER:0
M107
M204 S3000
M205 X10 Y10
G1 F1200 Z0.375
G0 F6000 X132.016 Y157.784 Z0.375
M204 S1000
M205 X8 Y8
;TYPE:SKIRT
G1 F1200 Z0.3
G1 F2400 E0
G1 X132.477 Y157.411 E0.04722
G1 X132.984 Y157.103 E0.09445
G1 X133.527 Y156.866 E0.14163
G1 X134.098 Y156.704 E0.18889
G1 X134.979 Y156.6 E0.25952
G1 X266.356 Y156.6 E10.72039
G1 X267.054 Y156.61 E10.77597
G1 X267.645 Y156.659 E10.82319
G1 X268.224 Y156.786 E10.87039
G1 X268.781 Y156.99 E10.91762
G1 X269.305 Y157.268 E10.96485
G1 X269.787 Y157.613 E11.01205
G1 X270.219 Y158.02 E11.05931
G1 X270.591 Y158.481 E11.10648
G1 X270.899 Y158.988 E11.15371
G1 X271.135 Y159.532 E11.20093
G1 X271.296 Y160.102 E11.24809
G1 X271.4 Y160.979 E11.31841
G1 X271.4 Y240.318 E17.63576
G1 X271.391 Y241.045 E17.69365
G1 X271.343 Y241.637 E17.74094
G1 X271.217 Y242.216 E17.78813
G1 X271.014 Y242.773 E17.83533
G1 X270.738 Y243.298 E17.88256
G1 X270.394 Y243.781 E17.92977
G1 X269.988 Y244.213 E17.97698
G1 X269.527 Y244.586 E18.0242
G1 X269.021 Y244.895 E18.0714
G1 X268.478 Y245.132 E18.11858
G1 X267.907 Y245.295 E18.16586
G1 X267.021 Y245.4 E18.2369
G1 X135.65 Y245.4 E28.69729
G1 X134.952 Y245.391 E28.75287
G1 X134.361 Y245.343 E28.80008
G1 X133.782 Y245.216 E28.84728
G1 X133.225 Y245.013 E28.89449
G1 X132.7 Y244.737 E28.94172
G1 X132.218 Y244.392 E28.98891
G1 X131.786 Y243.986 E29.03612
G1 X131.412 Y243.525 E29.08338
G1 X131.104 Y243.019 E29.13055
G1 X130.867 Y242.475 E29.1778
G1 X130.705 Y241.905 E29.22498
G1 X130.6 Y241.017 E29.29618
G1 X130.6 Y161.614 E35.61863
G1 X130.609 Y160.949 E35.67158
G1 X130.657 Y160.358 E35.7188
G1 X130.784 Y159.779 E35.766
G1 X130.988 Y159.222 E35.81323
G1 X131.265 Y158.698 E35.86042
G1 X131.61 Y158.216 E35.90762
G1 X132.016 Y157.784 E35.95482
M204 S3000
M205 X10 Y10
G0 F6000 X132.562 Y158.05
M204 S1000
M205 X8 Y8
G1 F2400 X133.013 Y157.729 E35.9989
G1 X133.505 Y157.476 E36.04295
G1 X134.029 Y157.296 E36.08707
G1 X134.574 Y157.194 E36.13122
G1 X135.33 Y157.16 E36.19148
G1 X266.348 Y157.16 E46.62375
G1 X267.046 Y157.17 E46.67934
G1 X267.598 Y157.218 E46.72346
G1 X268.137 Y157.345 E46.76755
G1 X268.652 Y157.548 E46.81163
G1 X269.133 Y157.823 E46.85574
G1 X269.569 Y158.164 E46.89982
G1 X269.952 Y158.565 E46.94397
G1 X270.273 Y159.016 E46.98805
G1 X270.526 Y159.509 E47.03217
G1 X270.705 Y160.033 E47.07626
G1 X270.807 Y160.578 E47.12041
G1 X270.84 Y161.33 E47.18035
G1 X270.84 Y240.312 E53.46927
G1 X270.831 Y241.039 E53.52716
G1 X270.784 Y241.59 E53.57119
G1 X270.658 Y242.13 E53.61535
G1 X270.456 Y242.646 E53.65947
G1 X270.182 Y243.127 E53.70355
G1 X269.842 Y243.564 E53.74763
G1 X269.442 Y243.947 E53.79173
G1 X268.991 Y244.269 E53.83585
G1 X268.499 Y244.523 E53.87994
G1 X267.975 Y244.703 E53.92406
G1 X267.431 Y244.806 E53.96814
G1 X266.67 Y244.84 E54.0288
G1 X135.657 Y244.84 E64.46068
G1 X134.959 Y244.831 E64.51626
G1 X134.408 Y244.784 E64.56029
G1 X133.868 Y244.658 E64.60444
G1 X133.353 Y244.455 E64.64852
G1 X132.871 Y244.181 E64.69267
G1 X132.435 Y243.84 E64.73674
G1 X132.052 Y243.44 E64.78084
G1 X131.73 Y242.989 E64.82496
G1 X131.477 Y242.497 E64.86901
G1 X131.297 Y241.973 E64.91313
G1 X131.194 Y241.429 E64.95722
G1 X131.161 Y240.762 E65.01039
G1 X131.16 Y161.622 E71.31189
G1 X131.169 Y160.957 E71.36485
G1 X131.217 Y160.405 E71.40897
G1 X131.343 Y159.866 E71.45304
G1 X131.546 Y159.35 E71.49719
G1 X131.82 Y158.869 E71.54127
G1 X132.161 Y158.433 E71.58534
G1 X132.562 Y158.05 E71.6295
M204 S3000
M205 X10 Y10
G0 F6000 X133.103 Y158.339
M204 S1000
M205 X8 Y8
G1 F2400 X133.542 Y158.075 E71.67029
G1 X134.016 Y157.883 E71.71101
G1 X134.514 Y157.766 E71.75174
G1 X135.018 Y157.721 E71.79203
G1 X266.34 Y157.72 E82.24851
G1 X267.038 Y157.73 E82.3041
G1 X267.548 Y157.778 E82.34489
G1 X268.044 Y157.904 E82.38563
G1 X268.514 Y158.105 E82.42634
G1 X268.948 Y158.378 E82.46716
G1 X269.333 Y158.714 E82.50785
G1 X269.662 Y159.106 E82.5486
G1 X269.926 Y159.545 E82.58939
G1 X270.118 Y160.02 E82.63018
G1 X270.234 Y160.518 E82.6709
G1 X270.279 Y161.018 E82.71087
G1 X270.28 Y240.305 E89.02408
G1 X270.271 Y241.032 E89.08197
G1 X270.224 Y241.541 E89.12267
G1 X270.099 Y242.038 E89.16348
G1 X269.899 Y242.509 E89.20422
G1 X269.627 Y242.943 E89.24501
G1 X269.292 Y243.329 E89.2857
G1 X268.9 Y243.658 E89.32645
G1 X268.462 Y243.923 E89.36721
G1 X267.988 Y244.116 E89.40797
G1 X267.489 Y244.233 E89.44878
G1 X266.984 Y244.279 E89.48915
G1 X135.665 Y244.28 E99.9454
G1 X134.967 Y244.271 E100.00098
G1 X134.457 Y244.224 E100.04176
G1 X133.961 Y244.099 E100.08249
G1 X133.49 Y243.898 E100.12326
G1 X133.056 Y243.626 E100.16405
G1 X132.67 Y243.29 E100.2048
G1 X132.341 Y242.898 E100.24555
G1 X132.076 Y242.46 E100.28631
G1 X131.884 Y241.986 E100.32703
G1 X131.767 Y241.488 E100.36776
G1 X131.721 Y240.981 E100.4083
G1 X131.72 Y161.63 E106.7266
G1 X131.729 Y160.965 E106.77956
G1 X131.776 Y160.455 E106.82034
G1 X131.902 Y159.959 E106.86109
G1 X132.103 Y159.488 E106.90186
G1 X132.375 Y159.054 E106.94264
G1 X132.711 Y158.668 E106.98339
G1 X133.103 Y158.339 E107.02414
M204 S3000
M205 X10 Y10
G1 F2400 E101.02414
;MESH:Deckel-komplett-V01.stl
G0 F6000 X135.414 Y160.335
G0 X135.414 Y161.414
G0 X136.4 Y162.4
M204 S1000
M205 X8 Y8
;TYPE:WALL-INNER
G1 F2400 E107.02414
G1 F2700 X136.4 Y239.6 E113.17117
G1 X265.6 Y239.6 E123.45869
G1 X265.6 Y162.4 E129.60572
G1 X136.4 Y162.4 E139.89324
M204 S3000
M205 X10 Y10
G0 F6000 X135.84 Y161.84
M204 S1000
M205 X8 Y8
G1 F2700 X135.84 Y240.16 E146.12946
G1 X266.16 Y240.16 E156.50615
G1 X266.16 Y161.84 E162.74237
G1 X135.84 Y161.84 E173.11907
M204 S3000
M205 X10 Y10
G0 F6000 X135.28 Y161.28
M204 S1000
M205 X8 Y8
;TYPE:WALL-OUTER
G1 F2700 X135.28 Y240.72 E179.44446
G1 X266.72 Y240.72 E189.91034
G1 X266.72 Y161.28 E196.23573
G1 X135.28 Y161.28 E206.70161
M204 S3000
M205 X10 Y10
G0 F6000 X135.28 Y161.48
G0 X135.87 Y161.87
G0 X136.94 Y162.94
M204 S1000
M205 X8 Y8
;TYPE:SKIN
G1 F2700 X136.94 Y201 E209.73212
G1 X136.94 Y239.06 E212.76264
G1 X265.06 Y239.06 E222.96417
G1 X265.06 Y162.94 E229.0252
G1 X136.94 Y162.94 E239.22673
M204 S3000
M205 X10 Y10
G0 F6000 X137.408 Y238.779
M204 S1000
M205 X8 Y8
G1 F2700 X137.22 Y238.591 E239.2479
M204 S3000
M205 X10 Y10
G0 F6000 X137.22 Y237.799
M204 S1000
M205 X8 Y8
G1 F2700 X138.2 Y238.779 E239.35825
M204 S3000
M205 X10 Y10
G0 F6000 X138.992 Y238.779
M204 S1000
M205 X8 Y8
G1 F2700 X137.22 Y237.007 E239.55779
M204 S3000
M205 X10 Y10
G0 F6000 X137.22 Y236.215
M204 S1000
M205 X8 Y8
G1 F2700 X139.784 Y238.779 E239.84651
M204 S3000
M205 X10 Y10
G0 F6000 X140.576 Y238.779
M204 S1000
M205 X8 Y8
G1 F2700 X137.22 Y235.423 E240.22442
M204 S3000
M205 X10 Y10
G0 F6000 X137.22 Y234.631
M204 S1000
M205 X8 Y8
G1 F2700 X141.368 Y238.779 E240.69151
M204 S3000
M205 X10 Y10
G0 F6000 X142.16 Y238.779
M204 S1000
M205 X8 Y8
G1 F2700 X137.22 Y233.839 E241.24779
M204 S3000
M205 X10 Y10
G0 F6000 X137.22 Y233.047
M204 S1000
M205 X8 Y8
G1 F2700 X142.952 Y238.779 E241.89325
M204 S3000
M205 X10 Y10
G0 F6000 X143.744 Y238.779
M204 S1000
M205 X8 Y8
G1 F2700 X137.22 Y232.255 E242.62789
M204 S3000
M205 X10 Y10
G0 F6000 X137.22 Y231.463
M204 S1000
M205 X8 Y8
G1 F2700 X144.536 Y238.779 E243.45172
M204 S3000
M205 X10 Y10
G0 F6000 X145.328 Y238.779
M204 S1000
M205 X8 Y8
G1 F2700 X137.22 Y230.671 E244.36473
M204 S3000
M205 X10 Y10
G0 F6000 X137.22 Y229.879
M204 S1000
M205 X8 Y8
G1 F2700 X146.12 Y238.779 E245.36693
M204 S3000
M205 X10 Y10
G0 F6000 X146.912 Y238.779
M204 S1000
M205 X8 Y8
G1 F2700 X137.22 Y229.087 E246.45831
M204 S3000
M205 X10 Y10
G0 F6000 X137.22 Y228.295
M204 S1000
M205 X8 Y8
G1 F2700 X147.703 Y238.779 E247.63882
M204 S3000
M205 X10 Y10
G0 F6000 X148.495 Y238.779
M204 S1000
M205 X8 Y8
G1 F2700 X137.22 Y227.503 E248.90852
M204 S3000
M205 X10 Y10
G0 F6000 X137.22 Y226.711
M204 S1000
M205 X8 Y8
G1 F2700 X149.287 Y238.779 E250.26739
M204 S3000
M205 X10 Y10
G0 F6000 X150.079 Y238.779
M204 S1000
M205 X8 Y8
G1 F2700 X137.22 Y225.919 E251.71546
M204 S3000
M205 X10 Y10
G0 F6000 X137.22 Y225.127
M204 S1000
M205 X8 Y8
G1 F2700 X150.871 Y238.779 E253.2527
M204 S3000
M205 X10 Y10
G0 F6000 X151.663 Y238.779
M204 S1000
M205 X8 Y8
G1 F2700 X137.22 Y224.335 E254.87913
M204 S3000
M205 X10 Y10
G0 F6000 X137.22 Y223.544
M204 S1000
M205 X8 Y8
G1 F2700 X152.455 Y238.779 E256.59469
M204 S3000
M205 X10 Y10
G0 F6000 X153.247 Y238.779
M204 S1000
M205 X8 Y8
G1 F2700 X137.22 Y222.752 E258.39944
M204 S3000
M205 X10 Y10
G0 F6000 X137.22 Y221.96
M204 S1000
M205 X8 Y8
G1 F2700 X154.039 Y238.779 E260.29336
M204 S3000
M205 X10 Y10
G0 F6000 X154.831 Y238.779
M204 S1000
M205 X8 Y8
G1 F2700 X137.22 Y221.168 E262.27647
M204 S3000
M205 X10 Y10
G0 F6000 X137.22 Y220.376
M204 S1000
M205 X8 Y8
G1 F2700 X155.623 Y238.779 E264.34877
M204 S3000
M205 X10 Y10
G0 F6000 X156.415 Y238.779
M204 S1000
M205 X8 Y8
G1 F2700 X137.22 Y219.584 E266.51025
M204 S3000
M205 X10 Y10
G0 F6000 X137.22 Y218.792
M204 S1000
M205 X8 Y8
G1 F2700 X157.207 Y238.779 E268.76092
M204 S3000
M205 X10 Y10
G0 F6000 X157.999 Y238.779
M204 S1000
M205 X8 Y8
G1 F2700 X137.22 Y218 E271.10076
M204 S3000
M205 X10 Y10
G0 F6000 X137.22 Y217.208
M204 S1000
M205 X8 Y8
G1 F2700 X158.791 Y238.779 E273.5298
M204 S3000
M205 X10 Y10
G0 F6000 X159.583 Y238.779
M204 S1000
M205 X8 Y8
G1 F2700 X137.22 Y216.416 E276.04801
M204 S3000
M205 X10 Y10
G0 F6000 X137.22 Y215.624
M204 S1000
M205 X8 Y8
G1 F2700 X160.375 Y238.779 E278.65542
M204 S3000
M205 X10 Y10
G0 F6000 X161.167 Y238.779
M204 S1000
M205 X8 Y8
G1 F2700 X137.22 Y214.832 E281.352
M204 S3000
M205 X10 Y10
G0 F6000 X137.22 Y214.04
M204 S1000
M205 X8 Y8
G1 F2700 X161.959 Y238.779 E284.13777
M204 S3000
M205 X10 Y10
G0 F6000 X162.751 Y238.779
M204 S1000
M205 X8 Y8
G1 F2700 X137.22 Y213.248 E287.01273
M204 S3000
M205 X10 Y10
G0 F6000 X137.22 Y212.456
M204 S1000
M205 X8 Y8
G1 F2700 X163.543 Y238.779 E289.97687
M204 S3000
M205 X10 Y10
G0 F6000 X164.335 Y238.779
M204 S1000
M205 X8 Y8
G1 F2700 X137.22 Y211.664 E293.03019
M204 S3000
M205 X10 Y10
G0 F6000 X137.22 Y210.872
M204 S1000
M205 X8 Y8
G1 F2700 X165.127 Y238.779 E296.1727
M204 S3000
M205 X10 Y10
G0 F6000 X165.919 Y238.779
M204 S1000
M205 X8 Y8
G1 F2700 X137.22 Y210.08 E299.40439
M204 S3000
M205 X10 Y10
G0 F6000 X137.22 Y209.288
M204 S1000
M205 X8 Y8
G1 F2700 X166.711 Y238.779 E302.72526
M204 S3000
M205 X10 Y10
G0 F6000 X167.502 Y238.779
M204 S1000
M205 X8 Y8
G1 F2700 X137.22 Y208.496 E306.13527
M204 S3000
M205 X10 Y10
G0 F6000 X137.22 Y207.704
M204 S1000
M205 X8 Y8
G1 F2700 X168.294 Y238.779 E309.63446
M204 S3000
M205 X10 Y10
G0 F6000 X169.086 Y238.779
M204 S1000
M205 X8 Y8
G1 F2700 X137.22 Y206.912 E313.22283
M204 S3000
M205 X10 Y10
G0 F6000 X137.22 Y206.12
M204 S1000
M205 X8 Y8
G1 F2700 X169.878 Y238.779 E316.90039
M204 S3000
M205 X10 Y10
G0 F6000 X170.67 Y238.779
M204 S1000
M205 X8 Y8
G1 F2700 X137.22 Y205.328 E320.66713
M204 S3000
M205 X10 Y10
G0 F6000 X137.22 Y204.537
M204 S1000
M205 X8 Y8
G1 F2700 X171.462 Y238.779 E324.523
M204 S3000
M205 X10 Y10
G0 F6000 X172.254 Y238.779
M204 S1000
M205 X8 Y8
G1 F2700 X137.22 Y203.745 E328.46805
M204 S3000
M205 X10 Y10
G0 F6000 X137.22 Y202.953
M204 S1000
M205 X8 Y8
G1 F2700 X173.046 Y238.779 E332.50229
M204 S3000
M205 X10 Y10
G0 F6000 X173.838 Y238.779
M204 S1000
M205 X8 Y8
G1 F2700 X137.22 Y202.161 E336.62571
M204 S3000
M205 X10 Y10
G0 F6000 X137.22 Y201.369
M204 S1000
M205 X8 Y8
G1 F2700 X174.63 Y238.779 E340.83831
M204 S3000
M205 X10 Y10
G0 F6000 X175.422 Y238.779
M204 S1000
M205 X8 Y8
G1 F2700 X137.22 Y200.577 E345.1401
M204 S3000
M205 X10 Y10
G0 F6000 X137.22 Y199.785
M204 S1000
M205 X8 Y8
G1 F2700 X176.214 Y238.779 E349.53108
M204 S3000
M205 X10 Y10
G0 F6000 X177.006 Y238.779
M204 S1000
M205 X8 Y8
G1 F2700 X137.22 Y198.993 E354.01124
M204 S3000
M205 X10 Y10
G0 F6000 X137.22 Y198.201
M204 S1000
M205 X8 Y8
G1 F2700 X177.798 Y238.779 E358.58058
M204 S3000
M205 X10 Y10
G0 F6000 X178.59 Y238.779
M204 S1000
M205 X8 Y8
G1 F2700 X137.22 Y197.409 E363.23911
M204 S3000
M205 X10 Y10
G0 F6000 X137.22 Y196.617
M204 S1000
M205 X8 Y8
G1 F2700 X179.382 Y238.779 E367.98682
M204 S3000
M205 X10 Y10
G0 F6000 X180.174 Y238.779
M204 S1000
M205 X8 Y8
G1 F2700 X137.22 Y195.825 E372.82372
M204 S3000
M205 X10 Y10
G0 F6000 X137.22 Y195.033
M204 S1000
M205 X8 Y8
G1 F2700 X180.966 Y238.779 E377.7498
M204 S3000
M205 X10 Y10
G0 F6000 X181.758 Y238.779
M204 S1000
M205 X8 Y8
G1 F2700 X137.22 Y194.241 E382.76506
M204 S3000
M205 X10 Y10
G0 F6000 X137.22 Y193.449
M204 S1000
M205 X8 Y8
G1 F2700 X182.55 Y238.779 E387.86951
M204 S3000
M205 X10 Y10
G0 F6000 X183.342 Y238.779
M204 S1000
M205 X8 Y8
G1 F2700 X137.22 Y192.657 E393.06314
M204 S3000
M205 X10 Y10
G0 F6000 X137.22 Y191.865
M204 S1000
M205 X8 Y8
G1 F2700 X184.134 Y238.779 E398.34596
M204 S3000
M205 X10 Y10
G0 F6000 X184.926 Y238.779
M204 S1000
M205 X8 Y8
G1 F2700 X137.22 Y191.073 E403.71796
M204 S3000
M205 X10 Y10
G0 F6000 X137.22 Y190.281
M204 S1000
M205 X8 Y8
G1 F2700 X185.718 Y238.779 E409.17915
M204 S3000
M205 X10 Y10
G0 F6000 X186.51 Y238.779
M204 S1000
M205 X8 Y8
G1 F2700 X137.22 Y189.489 E414.72952
M204 S3000
M205 X10 Y10
G0 F6000 X137.22 Y188.697
M204 S1000
M205 X8 Y8
G1 F2700 X187.301 Y238.779 E420.36902
M204 S3000
M205 X10 Y10
G0 F6000 X188.093 Y238.779
M204 S1000
M205 X8 Y8
G1 F2700 X137.22 Y187.905 E426.0977
M204 S3000
M205 X10 Y10
G0 F6000 X137.22 Y187.113
M204 S1000
M205 X8 Y8
G1 F2700 X188.885 Y238.779 E431.91557
M204 S3000
M205 X10 Y10
G0 F6000 X189.677 Y238.779
M204 S1000
M205 X8 Y8
G1 F2700 X137.22 Y186.321 E437.82262
M204 S3000
M205 X10 Y10
G0 F6000 X137.22 Y185.529
M204 S1000
M205 X8 Y8
G1 F2700 X190.469 Y238.779 E443.81886
M204 S3000
M205 X10 Y10
G0 F6000 X191.261 Y238.779
M204 S1000
M205 X8 Y8
G1 F2700 X137.22 Y184.738 E449.90422
M204 S3000
M205 X10 Y10
G0 F6000 X137.22 Y183.946
M204 S1000
M205 X8 Y8
G1 F2700 X192.053 Y238.779 E456.07877
M204 S3000
M205 X10 Y10
G0 F6000 X192.845 Y238.779
M204 S1000
M205 X8 Y8
G1 F2700 X137.22 Y183.154 E462.3425
M204 S3000
M205 X10 Y10
G0 F6000 X137.22 Y182.362
M204 S1000
M205 X8 Y8
G1 F2700 X193.637 Y238.779 E468.69542
M204 S3000
M205 X10 Y10
G0 F6000 X194.429 Y238.779
M204 S1000
M205 X8 Y8
G1 F2700 X137.22 Y181.57 E475.13752
M204 S3000
M205 X10 Y10
G0 F6000 X137.22 Y180.778
M204 S1000
M205 X8 Y8
G1 F2700 X195.221 Y238.779 E481.6688
M204 S3000
M205 X10 Y10
G0 F6000 X196.013 Y238.779
M204 S1000
M205 X8 Y8
G1 F2700 X137.22 Y179.986 E488.28927
M204 S3000
M205 X10 Y10
G0 F6000 X137.22 Y179.194
M204 S1000
M205 X8 Y8
G1 F2700 X196.805 Y238.779 E494.99892
M204 S3000
M205 X10 Y10
G0 F6000 X197.597 Y238.779
M204 S1000
M205 X8 Y8
G1 F2700 X137.22 Y178.402 E501.79776
M204 S3000
M205 X10 Y10
G0 F6000 X137.22 Y177.61
M204 S1000
M205 X8 Y8
G1 F2700 X198.389 Y238.779 E508.68578
M204 S3000
M205 X10 Y10
G0 F6000 X199.181 Y238.779
M204 S1000
M205 X8 Y8
G1 F2700 X137.22 Y176.818 E515.66299
M204 S3000
M205 X10 Y10
G0 F6000 X137.22 Y176.026
M204 S1000
M205 X8 Y8
G1 F2700 X199.973 Y238.779 E522.72938
M204 S3000
M205 X10 Y10
G0 F6000 X200.765 Y238.779
M204 S1000
M205 X8 Y8
G1 F2700 X137.22 Y175.234 E529.88496
M204 S3000
M205 X10 Y10
G0 F6000 X137.22 Y174.442
M204 S1000
M205 X8 Y8
G1 F2700 X201.557 Y238.779 E537.12972
M204 S3000
M205 X10 Y10
G0 F6000 X202.349 Y238.779
M204 S1000
M205 X8 Y8
G1 F2700 X137.22 Y173.65 E544.46366
M204 S3000
M205 X10 Y10
G0 F6000 X137.22 Y172.858
M204 S1000
M205 X8 Y8
G1 F2700 X203.141 Y238.779 E551.88679
M204 S3000
M205 X10 Y10
G0 F6000 X203.933 Y238.779
M204 S1000
M205 X8 Y8
G1 F2700 X137.22 Y172.066 E559.3991
M204 S3000
M205 X10 Y10
G0 F6000 X137.22 Y171.274
M204 S1000
M205 X8 Y8
G1 F2700 X204.725 Y238.779 E567.0006
M204 S3000
M205 X10 Y10
G0 F6000 X205.517 Y238.779
M204 S1000
M205 X8 Y8
G1 F2700 X137.22 Y170.482 E574.69128
M204 S3000
M205 X10 Y10
G0 F6000 X137.22 Y169.69
M204 S1000
M205 X8 Y8
