;FLAVOR:Marlin
;TIME:849
;Filament used: 1.02408m
;Layer height: 0.2
;MINX:186.6
;MINY:166.6
;MINZ:0.2
;MAXX:215.4
;MAXY:235.4
;MAXZ:3
;Generated with Cura_SteamEngine 5.2.1
M140 S60
M105
M190 S60
M104 S180
M105
M109 S180
M82 ;absolute extrusion mode
; Anycubic Kobra Max
G28 ;Home
G1 Z15.0 F1200 ;Move the platform down 15mm
;Prime the extruder
G92 E0
G1 F200 E3
G92 E0
G92 E0
G92 E0
G1 F2400 E-6
;LAYER_COUNT:15
;LAYER:0
M107
M204 S3000
M205 X10 Y10
G1 F1200 Z0.275
G0 F6000 X187.61 Y168.216 Z0.275
M204 S1000
M205 X8 Y8
;TYPE:SKIRT
G1 F1200 Z0.2
G1 F2400 E0
G1 X188.016 Y167.784 E0.03147
G1 X188.477 Y167.411 E0.06295
G1 X188.984 Y167.103 E0.09444
G1 X189.527 Y166.866 E0.12589
G1 X190.098 Y166.704 E0.1574
G1 X190.979 Y166.6 E0.20449
G1 X210.356 Y166.6 E1.23308
G1 X211.054 Y166.61 E1.27013
G1 X211.645 Y166.659 E1.30161
G1 X212.224 Y166.786 E1.33308
G1 X212.781 Y166.99 E1.36457
G1 X213.305 Y167.268 E1.39606
G1 X213.787 Y167.613 E1.42752
G1 X214.219 Y168.02 E1.45903
G1 X214.591 Y168.481 E1.49047
G1 X214.899 Y168.988 E1.52196
G1 X215.135 Y169.532 E1.55344
G1 X215.296 Y170.102 E1.58488
G1 X215.4 Y170.979 E1.63176
G1 X215.4 Y230.318 E4.78166
G1 X215.391 Y231.045 E4.82026
G1 X215.343 Y231.637 E4.85179
G1 X215.217 Y232.216 E4.88324
G1 X215.014 Y232.773 E4.91471
G1 X214.738 Y233.298 E4.9462
G1 X214.394 Y233.781 E4.97767
G1 X213.988 Y234.213 E5.00914
G1 X213.527 Y234.586 E5.04062
G1 X213.021 Y234.895 E5.07209
G1 X212.478 Y235.132 E5.10354
G1 X211.907 Y235.295 E5.13507
G1 X211.021 Y235.4 E5.18243
G1 X191.65 Y235.4 E6.2107
G1 X190.952 Y235.391 E6.24776
G1 X190.361 Y235.343 E6.27923
G1 X189.782 Y235.216 E6.3107
G1 X189.225 Y235.013 E6.34217
G1 X188.7 Y234.737 E6.37365
G1 X188.218 Y234.392 E6.40512
G1 X187.786 Y233.986 E6.43659
G1 X187.412 Y233.525 E6.4681
G1 X187.104 Y233.019 E6.49954
G1 X186.867 Y232.475 E6.53104
G1 X186.705 Y231.905 E6.5625
G1 X186.6 Y231.017 E6.60996
G1 X186.6 Y171.614 E9.76326
G1 X186.609 Y170.949 E9.79857
G1 X186.657 Y170.358 E9.83004
G1 X186.784 Y169.779 E9.86151
G1 X186.988 Y169.222 E9.893
G1 X187.265 Y168.698 E9.92446
G1 X187.61 Y168.216 E9.95592
M204 S3000
M205 X10 Y10
G0 F6000 X188.161 Y168.433
M204 S1000
M205 X8 Y8
G1 F2400 X188.562 Y168.05 E9.98536
G1 X189.013 Y167.729 E10.01475
G1 X189.505 Y167.476 E10.04411
G1 X190.029 Y167.296 E10.07352
G1 X190.574 Y167.194 E10.10296
G1 X191.33 Y167.16 E10.14313
G1 X210.348 Y167.16 E11.15266
G1 X211.046 Y167.17 E11.18972
G1 X211.598 Y167.218 E11.21913
G1 X212.137 Y167.345 E11.24853
G1 X212.652 Y167.548 E11.27791
G1 X213.133 Y167.823 E11.30732
G1 X213.569 Y168.164 E11.33671
G1 X213.952 Y168.565 E11.36614
G1 X214.273 Y169.016 E11.39553
G1 X214.526 Y169.509 E11.42494
G1 X214.705 Y170.033 E11.45434
G1 X214.807 Y170.578 E11.48377
G1 X214.84 Y171.33 E11.52373
G1 X214.84 Y230.312 E14.65468
G1 X214.831 Y231.039 E14.69327
G1 X214.784 Y231.59 E14.72263
G1 X214.658 Y232.13 E14.75206
G1 X214.456 Y232.646 E14.78148
G1 X214.182 Y233.127 E14.81086
G1 X213.842 Y233.564 E14.84025
G1 X213.442 Y233.947 E14.86965
G1 X212.991 Y234.269 E14.89907
G1 X212.499 Y234.523 E14.92846
G1 X211.975 Y234.703 E14.95787
G1 X211.431 Y234.806 E14.98726
G1 X210.67 Y234.84 E15.0277
G1 X191.657 Y234.84 E16.03697
G1 X190.959 Y234.831 E16.07402
G1 X190.408 Y234.784 E16.10338
G1 X189.868 Y234.658 E16.13281
G1 X189.353 Y234.455 E16.1622
G1 X188.871 Y234.181 E16.19163
G1 X188.435 Y233.84 E16.22101
G1 X188.052 Y233.44 E16.25041
G1 X187.73 Y232.989 E16.27982
G1 X187.477 Y232.497 E16.30919
G1 X187.297 Y231.973 E16.3386
G1 X187.194 Y231.429 E16.36799
G1 X187.161 Y230.762 E16.40344
G1 X187.16 Y171.622 E19.54278
G1 X187.169 Y170.957 E19.57808
G1 X187.217 Y170.405 E19.6075
G1 X187.343 Y169.866 E19.63688
G1 X187.546 Y169.35 E19.66631
G1 X187.82 Y168.869 E19.6957
G1 X188.161 Y168.433 E19.72508
M204 S3000
M205 X10 Y10
G0 F6000 X188.711 Y168.668
M204 S1000
M205 X8 Y8
G1 F2400 X189.103 Y168.339 E19.75225
G1 X189.542 Y168.075 E19.77944
G1 X190.016 Y167.883 E19.80659
G1 X190.514 Y167.766 E19.83374
G1 X191.018 Y167.721 E19.8606
G1 X210.34 Y167.72 E20.88628
G1 X211.038 Y167.73 E20.92333
G1 X211.548 Y167.778 E20.95052
G1 X212.044 Y167.904 E20.97769
G1 X212.514 Y168.105 E21.00483
G1 X212.948 Y168.378 E21.03204
G1 X213.333 Y168.714 E21.05917
G1 X213.662 Y169.106 E21.08633
G1 X213.926 Y169.545 E21.11353
G1 X214.118 Y170.02 E21.14072
G1 X214.234 Y170.518 E21.16787
G1 X214.279 Y171.018 E21.19452
G1 X214.28 Y230.305 E24.34166
G1 X214.271 Y231.032 E24.38025
G1 X214.224 Y231.541 E24.40739
G1 X214.099 Y232.038 E24.43459
G1 X213.899 Y232.509 E24.46175
G1 X213.627 Y232.943 E24.48894
G1 X213.292 Y233.329 E24.51607
G1 X212.9 Y233.658 E24.54324
G1 X212.462 Y233.923 E24.57041
G1 X211.988 Y234.116 E24.59758
G1 X211.489 Y234.233 E24.62479
G1 X210.984 Y234.279 E24.65171
G1 X191.665 Y234.28 E25.67722
G1 X190.967 Y234.271 E25.71427
G1 X190.457 Y234.224 E25.74146
G1 X189.961 Y234.099 E25.76861
G1 X189.49 Y233.898 E25.7958
G1 X189.056 Y233.626 E25.82299
G1 X188.67 Y233.29 E25.85015
G1 X188.341 Y232.898 E25.87732
G1 X188.076 Y232.46 E25.90449
G1 X187.884 Y231.986 E25.93164
G1 X187.767 Y231.488 E25.9588
G1 X187.721 Y230.981 E25.98582
G1 X187.72 Y171.63 E29.13636
G1 X187.729 Y170.965 E29.17166
G1 X187.776 Y170.455 E29.19885
G1 X187.902 Y169.959 E29.22601
G1 X188.103 Y169.488 E29.2532
G1 X188.375 Y169.054 E29.28039
G1 X188.711 Y168.668 E29.30755
M204 S3000
M205 X10 Y10
G1 F2400 E23.30755
;MESH:Deckel-H1-V02.stl
G0 F6000 X191.414 Y170.335
G0 X191.414 Y171.414
G0 X192.4 Y172.4
M204 S1000
M205 X8 Y8
;TYPE:WALL-INNER
G1 F2400 E29.30755
G1 F2700 X192.4 Y229.6 E32.34391
G1 X209.6 Y229.6 E33.25694
G1 X209.6 Y181 E35.83678
G1 X209.6 Y172.4 E36.2933
G1 X192.4 Y172.4 E37.20633
M204 S3000
M205 X10 Y10
G0 F6000 X191.84 Y171.84
M204 S1000
M205 X8 Y8
G1 F2700 X191.84 Y230.16 E40.30214
G1 X210.16 Y230.16 E41.27462
G1 X210.16 Y181 E43.88419
G1 X210.16 Y171.84 E44.37043
G1 X191.84 Y171.84 E45.34292
M204 S3000
M205 X10 Y10
G0 F6000 X191.28 Y171.28
M204 S1000
M205 X8 Y8
;TYPE:WALL-OUTER
G1 F2700 X191.28 Y230.72 E48.49818
G1 X210.72 Y230.72 E49.53012
G1 X210.72 Y181 E52.16941
G1 X210.72 Y171.28 E52.68538
G1 X191.28 Y171.28 E53.71732
M204 S3000
M205 X10 Y10
G0 F6000 X191.28 Y171.48
G0 X191.87 Y171.87
G0 X192.94 Y172.94
M204 S1000
M205 X8 Y8
;TYPE:SKIN
G1 F2700 X192.94 Y229.06 E56.69635
G1 X209.06 Y229.06 E57.55205
G1 X209.06 Y181 E60.10323
G1 X209.06 Y172.94 E60.53108
G1 X192.94 Y172.94 E61.38678
M204 S3000
M205 X10 Y10
G0 F6000 X208.779 Y173.933
M204 S1000
M205 X8 Y8
G1 F2700 X208.066 Y173.219 E61.44034
M204 S3000
M205 X10 Y10
G0 F6000 X207.274 Y173.219
M204 S1000
M205 X8 Y8
G1 F2700 X208.779 Y174.725 E61.55336
M204 S3000
M205 X10 Y10
G0 F6000 X208.779 Y175.517
M204 S1000
M205 X8 Y8
G1 F2700 X206.482 Y173.219 E61.72584
M204 S3000
M205 X10 Y10
G0 F6000 X205.69 Y173.219
M204 S1000
M205 X8 Y8
G1 F2700 X208.779 Y176.309 E61.95777
M204 S3000
M205 X10 Y10
G0 F6000 X208.779 Y177.101
M204 S1000
M205 X8 Y8
G1 F2700 X204.898 Y173.219 E62.24915
M204 S3000
M205 X10 Y10
G0 F6000 X204.106 Y173.219
M204 S1000
M205 X8 Y8
G1 F2700 X208.779 Y177.893 E62.6
M204 S3000
M205 X10 Y10
G0 F6000 X208.779 Y178.685
M204 S1000
M205 X8 Y8
G1 F2700 X203.314 Y173.219 E63.0103
M204 S3000
M205 X10 Y10
G0 F6000 X202.522 Y173.219
M204 S1000
M205 X8 Y8
G1 F2700 X208.779 Y179.477 E63.48006
M204 S3000
M205 X10 Y10
G0 F6000 X208.779 Y180.269
M204 S1000
M205 X8 Y8
G1 F2700 X201.73 Y173.219 E64.00927
M204 S3000
M205 X10 Y10
G0 F6000 X200.938 Y173.219
M204 S1000
M205 X8 Y8
G1 F2700 X208.779 Y181.061 E64.59794
M204 S3000
M205 X10 Y10
G0 F6000 X208.779 Y181.853
M204 S1000
M205 X8 Y8
G1 F2700 X200.146 Y173.219 E65.24606
M204 S3000
M205 X10 Y10
G0 F6000 X199.354 Y173.219
M204 S1000
M205 X8 Y8
G1 F2700 X208.779 Y182.644 E65.95361
M204 S3000
M205 X10 Y10
G0 F6000 X208.779 Y183.436
M204 S1000
M205 X8 Y8
G1 F2700 X198.562 Y173.219 E66.72061
M204 S3000
M205 X10 Y10
G0 F6000 X197.77 Y173.219
M204 S1000
M205 X8 Y8
G1 F2700 X208.779 Y184.228 E67.54706
M204 S3000
M205 X10 Y10
G0 F6000 X208.779 Y185.02
M204 S1000
M205 X8 Y8
G1 F2700 X196.978 Y173.219 E68.43297
M204 S3000
M205 X10 Y10
G0 F6000 X196.186 Y173.219
M204 S1000
M205 X8 Y8
G1 F2700 X208.779 Y185.812 E69.37834
M204 S3000
M205 X10 Y10
G0 F6000 X208.779 Y186.604
M204 S1000
M205 X8 Y8
G1 F2700 X195.394 Y173.219 E70.38317
M204 S3000
M205 X10 Y10
G0 F6000 X194.602 Y173.219
M204 S1000
M205 X8 Y8
G1 F2700 X208.779 Y187.396 E71.44745
M204 S3000
M205 X10 Y10
G0 F6000 X208.779 Y188.188
M204 S1000
M205 X8 Y8
G1 F2700 X193.81 Y173.219 E72.57118
M204 S3000
M205 X10 Y10
G0 F6000 X193.219 Y173.42
M204 S1000
M205 X8 Y8
G1 F2700 X208.779 Y188.98 E73.73929
M204 S3000
M205 X10 Y10
G0 F6000 X208.779 Y189.772
M204 S1000
M205 X8 Y8
G1 F2700 X193.219 Y174.212 E74.90739
M204 S3000
M205 X10 Y10
G0 F6000 X193.219 Y175.004
M204 S1000
M205 X8 Y8
G1 F2700 X208.779 Y190.564 E76.0755
M204 S3000
M205 X10 Y10
G0 F6000 X208.779 Y191.356
M204 S1000
M205 X8 Y8
G1 F2700 X193.219 Y175.796 E77.2436
M204 S3000
M205 X10 Y10
G0 F6000 X193.219 Y176.588
M204 S1000
M205 X8 Y8
G1 F2700 X208.779 Y192.148 E78.4117
M204 S3000
M205 X10 Y10
G0 F6000 X208.779 Y192.94
M204 S1000
M205 X8 Y8
G1 F2700 X193.219 Y177.38 E79.57981
M204 S3000
M205 X10 Y10
G0 F6000 X193.219 Y178.172
M204 S1000
M205 X8 Y8
G1 F2700 X208.779 Y193.732 E80.74791
M204 S3000
M205 X10 Y10
G0 F6000 X208.779 Y194.524
M204 S1000
M205 X8 Y8
G1 F2700 X193.219 Y178.964 E81.91602
M204 S3000
M205 X10 Y10
G0 F6000 X193.219 Y179.756
M204 S1000
M205 X8 Y8
G1 F2700 X208.779 Y195.316 E83.08412
M204 S3000
M205 X10 Y10
G0 F6000 X208.779 Y196.108
M204 S1000
M205 X8 Y8
G1 F2700 X193.219 Y180.548 E84.25222
M204 S3000
M205 X10 Y10
G0 F6000 X193.219 Y181.34
M204 S1000
M205 X8 Y8
G1 F2700 X208.779 Y196.9 E85.42033
M204 S3000
M205 X10 Y10
G0 F6000 X208.779 Y197.692
M204 S1000
M205 X8 Y8
G1 F2700 X193.219 Y182.132 E86.58843
M204 S3000
M205 X10 Y10
G0 F6000 X193.219 Y182.924
M204 S1000
M205 X8 Y8
G1 F2700 X208.779 Y198.484 E87.75654
M204 S3000
M205 X10 Y10
G0 F6000 X208.779 Y199.276
M204 S1000
M205 X8 Y8
G1 F2700 X193.219 Y183.716 E88.92464
M204 S3000
M205 X10 Y10
G0 F6000 X193.219 Y184.508
M204 S1000
M205 X8 Y8
G1 F2700 X208.779 Y200.068 E90.09274
M204 S3000
M205 X10 Y10
G0 F6000 X208.779 Y200.86
M204 S1000
M205 X8 Y8
G1 F2700 X193.219 Y185.3 E91.26085
M204 S3000
M205 X10 Y10
G0 F6000 X193.219 Y186.092
M204 S1000
M205 X8 Y8
G1 F2700 X208.779 Y201.652 E92.42895
M204 S3000
M205 X10 Y10
G0 F6000 X208.779 Y202.443
M204 S1000
M205 X8 Y8
G1 F2700 X193.219 Y186.884 E93.59702
M204 S3000
M205 X10 Y10
G0 F6000 X193.219 Y187.676
M204 S1000
M205 X8 Y8
G1 F2700 X208.779 Y203.235 E94.76508
M204 S3000
M205 X10 Y10
G0 F6000 X208.779 Y204.027
M204 S1000
M205 X8 Y8
G1 F2700 X193.219 Y188.467 E95.93319
M204 S3000
M205 X10 Y10
G0 F6000 X193.219 Y189.259
M204 S1000
M205 X8 Y8
G1 F2700 X208.779 Y204.819 E97.10129
M204 S3000
M205 X10 Y10
G0 F6000 X208.779 Y205.611
M204 S1000
M205 X8 Y8
G1 F2700 X193.219 Y190.051 E98.2694
M204 S3000
M205 X10 Y10
G0 F6000 X193.219 Y190.843
M204 S1000
M205 X8 Y8
G1 F2700 X208.779 Y206.403 E99.4375
M204 S3000
M205 X10 Y10
G0 F6000 X208.779 Y207.195
M204 S1000
M205 X8 Y8
G1 F2700 X193.219 Y191.635 E100.6056
M204 S3000
M205 X10 Y10
G0 F6000 X193.219 Y192.427
M204 S1000
M205 X8 Y8
G1 F2700 X208.779 Y207.987 E101.77371
M204 S3000
M205 X10 Y10
G0 F6000 X208.779 Y208.779
M204 S1000
M205 X8 Y8
G1 F2700 X193.219 Y193.219 E102.94181
M204 S3000
M205 X10 Y10
G0 F6000 X193.219 Y194.011
M204 S1000
M205 X8 Y8
G1 F2700 X208.779 Y209.571 E104.10992
M204 S3000
M205 X10 Y10
G0 F6000 X208.779 Y210.363
M204 S1000
M205 X8 Y8
G1 F2700 X193.219 Y194.803 E105.27802
M204 S3000
M205 X10 Y10
G0 F6000 X193.219 Y195.595
M204 S1000
M205 X8 Y8
G1 F2700 X208.779 Y211.155 E106.44612
M204 S3000
M205 X10 Y10
G0 F6000 X208.779 Y211.947
M204 S1000
M205 X8 Y8
G1 F2700 X193.219 Y196.387 E107.61423
M204 S3000
M205 X10 Y10
G0 F6000 X193.219 Y197.179
M204 S1000
M205 X8 Y8
G1 F2700 X208.779 Y212.739 E108.78233
M204 S3000
M205 X10 Y10
G0 F6000 X208.779 Y213.531
M204 S1000
M205 X8 Y8
G1 F2700 X193.219 Y197.971 E109.95044
M204 S3000
M205 X10 Y10
G0 F6000 X193.219 Y198.763
M204 S1000
M205 X8 Y8
G1 F2700 X208.779 Y214.323 E111.11854
M204 S3000
M205 X10 Y10
G0 F6000 X208.779 Y215.115
M204 S1000
M205 X8 Y8
G1 F2700 X193.219 Y199.555 E112.28664
M204 S3000
M205 X10 Y10
G0 F6000 X193.219 Y200.347
M204 S1000
M205 X8 Y8
G1 F2700 X208.779 Y215.907 E113.45475
M204 S3000
M205 X10 Y10
G0 F6000 X208.779 Y216.699
M204 S1000
M205 X8 Y8
G1 F2700 X193.219 Y201.139 E114.62285
M204 S3000
M205 X10 Y10
G0 F6000 X193.219 Y201.931
M204 S1000
M205 X8 Y8
G1 F2700 X208.779 Y217.491 E115.79096
M204 S3000
M205 X10 Y10
G0 F6000 X208.779 Y218.283
M204 S1000
M205 X8 Y8
G1 F2700 X193.219 Y202.723 E116.95906
M204 S3000
M205 X10 Y10
G0 F6000 X193.219 Y203.515
M204 S1000
M205 X8 Y8
G1 F2700 X208.779 Y219.075 E118.12716
M204 S3000
M205 X10 Y10
G0 F6000 X208.779 Y219.867
M204 S1000
M205 X8 Y8
G1 F2700 X193.219 Y204.307 E119.29527
M204 S3000
M205 X10 Y10
G0 F6000 X193.219 Y205.099
M204 S1000
M205 X8 Y8
G1 F2700 X208.779 Y220.659 E120.46337
M204 S3000
M205 X10 Y10
G0 F6000 X208.779 Y221.45
M204 S1000
M205 X8 Y8
G1 F2700 X193.219 Y205.891 E121.63144
M204 S3000
M205 X10 Y10
G0 F6000 X193.219 Y206.683
M204 S1000
M205 X8 Y8
G1 F2700 X208.779 Y222.242 E122.7995
M204 S3000
M205 X10 Y10
G0 F6000 X208.779 Y223.034
M204 S1000
M205 X8 Y8
G1 F2700 X193.219 Y207.475 E123.96757
M204 S3000
M205 X10 Y10
G0 F6000 X193.219 Y208.266
M204 S1000
M205 X8 Y8
G1 F2700 X208.779 Y223.826 E125.13567
M204 S3000
M205 X10 Y10
G0 F6000 X208.779 Y224.618
M204 S1000
M205 X8 Y8
G1 F2700 X193.219 Y209.058 E126.30378
M204 S3000
M205 X10 Y10
G0 F6000 X193.219 Y209.85
M204 S1000
M205 X8 Y8
G1 F2700 X208.779 Y225.41 E127.47188
M204 S3000
M205 X10 Y10
G0 F6000 X208.779 Y226.202
M204 S1000
M205 X8 Y8
G1 F2700 X193.219 Y210.642 E128.63999
M204 S3000
M205 X10 Y10
G0 F6000 X193.219 Y211.434
M204 S1000
M205 X8 Y8
G1 F2700 X208.779 Y226.994 E129.80809
M204 S3000
M205 X10 Y10
G0 F6000 X208.779 Y227.786
M204 S1000
M205 X8 Y8
G1 F2700 X193.219 Y212.226 E130.97619
M204 S3000
M205 X10 Y10
G0 F6000 X193.219 Y213.018
M204 S1000
M205 X8 Y8
G1 F2700 X208.779 Y228.578 E132.1443
M204 S3000
M205 X10 Y10
G0 F6000 X208.188 Y228.779
M204 S1000
M205 X8 Y8
G1 F2700 X193.219 Y213.81 E133.26803
M204 S3000
M205 X10 Y10
G0 F6000 X193.219 Y214.602
M204 S1000
M205 X8 Y8
G1 F2700 X207.396 Y228.779 E134.33232
M204 S3000
M205 X10 Y10
G0 F6000 X206.604 Y228.779
M204 S1000
M205 X8 Y8
G1 F2700 X193.219 Y215.394 E135.33714
M204 S3000
M205 X10 Y10
G0 F6000 X193.219 Y216.186
M204 S1000
M205 X8 Y8
G1 F2700 X205.812 Y228.779 E136.28251
M204 S3000
M205 X10 Y10
G0 F6000 X205.02 Y228.779
M204 S1000
M205 X8 Y8
G1 F2700 X193.219 Y216.978 E137.16842
M204 S3000
M205 X10 Y10
G0 F6000 X193.219 Y217.77
M204 S1000
M205 X8 Y8
G1 F2700 X204.228 Y228.779 E137.99488
M204 S3000
M205 X10 Y10
G0 F6000 X203.436 Y228.779
M204 S1000
M205 X8 Y8
G1 F2700 X193.219 Y218.562 E138.76188
M204 S3000
M205 X10 Y10
G0 F6000 X193.219 Y219.354
M204 S1000
M205 X8 Y8
G1 F2700 X202.644 Y228.779 E139.46942
M204 S3000
M205 X10 Y10
G0 F6000 X201.852 Y228.779
M204 S1000
M205 X8 Y8
G1 F2700 X193.219 Y220.146 E140.11751
M204 S3000
M205 X10 Y10
G0 F6000 X193.219 Y220.938
M204 S1000
M205 X8 Y8
G1 F2700 X201.06 Y228.779 E140.70614
M204 S3000
M205 X10 Y10
G0 F6000 X200.268 Y228.779
M204 S1000
M205 X8 Y8
G1 F2700 X193.219 Y221.73 E141.23531
M204 S3000
M205 X10 Y10
G0 F6000 X193.219 Y222.522
M204 S1000
M205 X8 Y8
G1 F2700 X199.476 Y228.779 E141.70503
M204 S3000
M205 X10 Y10
G0 F6000 X198.684 Y228.779
M204 S1000
M205 X8 Y8
G1 F2700 X193.219 Y223.314 E142.1153
M204 S3000
M205 X10 Y10
G0 F6000 X193.219 Y224.106
M204 S1000
M205 X8 Y8
G1 F2700 X197.893 Y228.779 E142.46614
M204 S3000
M205 X10 Y10
G0 F6000 X197.101 Y228.779
M204 S1000
M205 X8 Y8
G1 F2700 X193.219 Y224.898 E142.75753
M204 S3000
M205 X10 Y10
G0 F6000 X193.219 Y225.69
M204 S1000
M205 X8 Y8
G1 F2700 X196.309 Y228.779 E142.98946
M204 S3000
M205 X10 Y10
G0 F6000 X195.517 Y228.779
M204 S1000
M205 X8 Y8
G1 F2700 X193.219 Y226.482 E143.16194
M204 S3000
M205 X10 Y10
G0 F6000 X193.219 Y227.274
M204 S1000
