;FLAVOR:Marlin
;TIME:5737
;Filament used: 10.6424m
;Layer height: 0.3
;MINX:130.6
;MINY:156.6
;MINZ:0.3
;MAXX:271.4
;MAXY:245.4
;MAXZ:22.8
;Generated with Cura_SteamEngine 5.2.1
M140 S60
M105
M190 S60
M104 S180
M105
M109 S180
M82 ;absolute extrusion mode
; Anycubic Kobra Max
G28 ;Home
G1 Z15.0 F1200 ;Move the platform down 15mm
;Prime the extruder
G92 E0
G1 F200 E3
G92 E0
G92 E0
G92 E0
G1 F2400 E-6
;LAYER_COUNT:76
;LAYER:0
M107
M204 S3000
M205 X10 Y10
G1 F1200 Z0.375
G0 F6000 X132.016 Y157.784 Z0.375
M204 S1000
M205 X8 Y8
;TYPE:SKIRT
G1 F1200 Z0.3
G1 F2400 E0
G1 X132.477 Y157.411 E0.04722
G1 X132.984 Y157.103 E0.09445
G1 X133.527 Y156.866 E0.14163
G1 X134.098 Y156.704 E0.18889
G1 X134.979 Y156.6 E0.25952
G1 X266.356 Y156.6 E10.72039
G1 X267.054 Y156.61 E10.77597
G1 X267.645 Y156.659 E10.82319
G1 X268.224 Y156.786 E10.87039
G1 X268.781 Y156.99 E10.91762
G1 X269.305 Y157.268 E10.96485
G1 X269.787 Y157.613 E11.01205
G1 X270.219 Y158.02 E11.05931
G1 X270.591 Y158.481 E11.10648
G1 X270.899 Y158.988 E11.15371
G1 X271.135 Y159.532 E11.20093
G1 X271.296 Y160.102 E11.24809
G1 X271.4 Y160.979 E11.31841
G1 X271.4 Y240.318 E17.63576
G1 X271.391 Y241.045 E17.69365
G1 X271.343 Y241.637 E17.74094
G1 X271.217 Y242.216 E17.78813
G1 X271.014 Y242.773 E17.83533
G1 X270.738 Y243.298 E17.88256
G1 X270.394 Y243.781 E17.92977
G1 X269.988 Y244.213 E17.97698
G1 X269.527 Y244.586 E18.0242
G1 X269.021 Y244.895 E18.0714
G1 X268.478 Y245.132 E18.11858
G1 X267.907 Y245.295 E18.16586
G1 X267.021 Y245.4 E18.2369
G1 X135.65 Y245.4 E28.69729
G1 X134.952 Y245.391 E28.75287
G1 X134.361 Y245.343 E28.80008
G1 X133.782 Y245.216 E28.84728
G1 X133.225 Y245.013 E28.89449
G1 X132.7 Y244.737 E28.94172
G1 X132.218 Y244.392 E28.98891
G1 X131.786 Y243.986 E29.03612
G1 X131.412 Y243.525 E29.08338
G1 X131.104 Y243.019 E29.13055
G1 X130.867 Y242.475 E29.1778
G1 X130.705 Y241.905 E29.22498
G1 X130.6 Y241.017 E29.29618
G1 X130.6 Y161.614 E35.61863
G1 X130.609 Y160.949 E35.67158
G1 X130.657 Y160.358 E35.7188
G1 X130.784 Y159.779 E35.766
G1 X130.988 Y159.222 E35.81323
G1 X131.265 Y158.698 E35.86042
G1 X131.61 Y158.216 E35.90762
G1 X132.016 Y157.784 E35.95482
M204 S3000
M205 X10 Y10
G0 F6000 X132.562 Y158.05
M204 S1000
M205 X8 Y8
G1 F2400 X133.013 Y157.729 E35.9989
G1 X133.505 Y157.476 E36.04295
G1 X134.029 Y157.296 E36.08707
G1 X134.574 Y157.194 E36.13122
G1 X135.33 Y157.16 E36.19148
G1 X266.348 Y157.16 E46.62375
G1 X267.046 Y157.17 E46.67934
G1 X267.598 Y157.218 E46.72346
G1 X268.137 Y157.345 E46.76755
G1 X268.652 Y157.548 E46.81163
G1 X269.133 Y157.823 E46.85574
G1 X269.569 Y158.164 E46.89982
G1 X269.952 Y158.565 E46.94397
G1 X270.273 Y159.016 E46.98805
G1 X270.526 Y159.509 E47.03217
G1 X270.705 Y160.033 E47.07626
G1 X270.807 Y160.578 E47.12041
G1 X270.84 Y161.33 E47.18035
G1 X270.84 Y240.312 E53.46927
G1 X270.831 Y241.039 E53.52716
G1 X270.784 Y241.59 E53.57119
G1 X270.658 Y242.13 E53.61535
G1 X270.456 Y242.646 E53.65947
G1 X270.182 Y243.127 E53.70355
G1 X269.842 Y243.564 E53.74763
G1 X269.442 Y243.947 E53.79173
G1 X268.991 Y244.269 E53.83585
G1 X268.499 Y244.523 E53.87994
G1 X267.975 Y244.703 E53.92406
G1 X267.431 Y244.806 E53.96814
G1 X266.67 Y244.84 E54.0288
G1 X135.657 Y244.84 E64.46068
G1 X134.959 Y244.831 E64.51626
G1 X134.408 Y244.784 E64.56029
G1 X133.868 Y244.658 E64.60444
G1 X133.353 Y244.455 E64.64852
G1 X132.871 Y244.181 E64.69267
G1 X132.435 Y243.84 E64.73674
G1 X132.052 Y243.44 E64.78084
G1 X131.73 Y242.989 E64.82496
G1 X131.477 Y242.497 E64.86901
G1 X131.297 Y241.973 E64.91313
G1 X131.194 Y241.429 E64.95722
G1 X131.161 Y240.762 E65.01039
G1 X131.16 Y161.622 E71.31189
G1 X131.169 Y160.957 E71.36485
G1 X131.217 Y160.405 E71.40897
G1 X131.343 Y159.866 E71.45304
G1 X131.546 Y159.35 E71.49719
G1 X131.82 Y158.869 E71.54127
G1 X132.161 Y158.433 E71.58534
G1 X132.562 Y158.05 E71.6295
M204 S3000
M205 X10 Y10
G0 F6000 X133.103 Y158.339
M204 S1000
M205 X8 Y8
G1 F2400 X133.542 Y158.075 E71.67029
G1 X134.016 Y157.883 E71.71101
G1 X134.514 Y157.766 E71.75174
G1 X135.018 Y157.721 E71.79203
G1 X266.34 Y157.72 E82.24851
G1 X267.038 Y157.73 E82.3041
G1 X267.548 Y157.778 E82.34489
G1 X268.044 Y157.904 E82.38563
G1 X268.514 Y158.105 E82.42634
G1 X268.948 Y158.378 E82.46716
G1 X269.333 Y158.714 E82.50785
G1 X269.662 Y159.106 E82.5486
G1 X269.926 Y159.545 E82.58939
G1 X270.118 Y160.02 E82.63018
G1 X270.234 Y160.518 E82.6709
G1 X270.279 Y161.018 E82.71087
G1 X270.28 Y240.305 E89.02408
G1 X270.271 Y241.032 E89.08197
G1 X270.224 Y241.541 E89.12267
G1 X270.099 Y242.038 E89.16348
G1 X269.899 Y242.509 E89.20422
G1 X269.627 Y242.943 E89.24501
G1 X269.292 Y243.329 E89.2857
G1 X268.9 Y243.658 E89.32645
G1 X268.462 Y243.923 E89.36721
G1 X267.988 Y244.116 E89.40797
G1 X267.489 Y244.233 E89.44878
G1 X266.984 Y244.279 E89.48915
G1 X135.665 Y244.28 E99.9454
G1 X134.967 Y244.271 E100.00098
G1 X134.457 Y244.224 E100.04176
G1 X133.961 Y244.099 E100.08249
G1 X133.49 Y243.898 E100.12326
G1 X133.056 Y243.626 E100.16405
G1 X132.67 Y243.29 E100.2048
G1 X132.341 Y242.898 E100.24555
G1 X132.076 Y242.46 E100.28631
G1 X131.884 Y241.986 E100.32703
G1 X131.767 Y241.488 E100.36776
G1 X131.721 Y240.981 E100.4083
G1 X131.72 Y161.63 E106.7266
G1 X131.729 Y160.965 E106.77956
G1 X131.776 Y160.455 E106.82034
G1 X131.902 Y159.959 E106.86109
G1 X132.103 Y159.488 E106.90186
G1 X132.375 Y159.054 E106.94264
G1 X132.711 Y158.668 E106.98339
G1 X133.103 Y158.339 E107.02414
M204 S3000
M205 X10 Y10
G1 F2400 E101.02414
;MESH:Deckel-komplett-V02.stl
G0 F6000 X135.414 Y160.335
G0 X135.414 Y161.414
G0 X136.4 Y162.4
M204 S1000
M205 X8 Y8
;TYPE:WALL-INNER
G1 F2400 E107.02414
G1 F2700 X136.401 Y239.599 E113.17109
G1 X265.6 Y239.6 E123.45853
G1 X265.6 Y172.616 E128.79212
G1 X265.6 Y162.4 E129.60557
G1 X136.4 Y162.4 E139.89308
M204 S3000
M205 X10 Y10
G0 F6000 X135.84 Y161.84
M204 S1000
M205 X8 Y8
G1 F2700 X135.841 Y240.159 E146.12922
G1 X266.16 Y240.16 E156.50584
G1 X266.16 Y172.616 E161.88401
G1 X266.16 Y161.84 E162.74205
G1 X135.84 Y161.84 E173.11875
M204 S3000
M205 X10 Y10
G0 F6000 X135.28 Y161.28
M204 S1000
M205 X8 Y8
;TYPE:WALL-OUTER
G1 F2700 X135.281 Y240.719 E179.44406
G1 X266.72 Y240.72 E189.90986
G1 X266.72 Y172.616 E195.33262
G1 X266.72 Y161.28 E196.23525
G1 X135.28 Y161.28 E206.70113
M204 S3000
M205 X10 Y10
G0 F6000 X135.28 Y161.48
G0 X135.87 Y161.87
G0 X144.375 Y184.416
G0 X144.39 Y185.472
G0 X143.724 Y187.469
M204 S1000
M205 X8 Y8
;TYPE:WALL-INNER
G1 F2700 X143.021 Y187.829 E206.76402
G1 X142.366 Y187.978 E206.8175
G1 X141.684 Y187.99 E206.87182
G1 X141.097 Y187.856 E206.91976
G1 X140.441 Y187.558 E206.97713
G1 X140.164 Y187.366 E207.00396
G1 X139.653 Y186.861 E207.06117
G1 X139.273 Y186.242 E207.119
G1 X139.065 Y185.623 E207.171
G1 X139 Y185 E207.22088
G1 X139.054 Y184.454 E207.26456
G1 X139.136 Y184.12 E207.29195
G1 X139.434 Y183.454 E207.35004
G1 X139.875 Y182.889 E207.40711
G1 X140.441 Y182.442 E207.46454
G1 X141.097 Y182.144 E207.52191
G1 X141.646 Y182.02 E207.56673
G1 X142.319 Y182.01 E207.62032
G1 X143.064 Y182.185 E207.68126
G1 X143.715 Y182.527 E207.73981
G1 X144.242 Y182.996 E207.79598
G1 X144.661 Y183.594 E207.85412
G1 X144.914 Y184.28 E207.91234
G1 X144.995 Y184.878 E207.96039
G1 X144.946 Y185.546 E208.01372
G1 X144.914 Y185.719 E208.02773
G1 X144.676 Y186.385 E208.08405
G1 X144.257 Y186.986 E208.14238
G1 X143.724 Y187.469 E208.19966
M204 S3000
M205 X10 Y10
G0 F6000 X144.375 Y185.584
G0 X144.375 Y184.416
G0 X143.83 Y183.378
G0 X142.907 Y182.667
G0 X142.88 Y182.716
M204 S1000
M205 X8 Y8
G1 F2700 X143.423 Y183.018 E208.24913
G1 X143.851 Y183.411 E208.2954
G1 X144.18 Y183.903 E208.34252
G1 X144.371 Y184.415 E208.38604
G1 X144.437 Y184.926 E208.42706
G1 X144.39 Y185.48 E208.47133
G1 X144.371 Y185.584 E208.47975
G1 X144.163 Y186.145 E208.52739
G1 X143.802 Y186.645 E208.5765
G1 X143.348 Y187.034 E208.6241
G1 X142.871 Y187.28 E208.66684
G1 X142.297 Y187.422 E208.71392
G1 X141.729 Y187.429 E208.75915
G1 X141.121 Y187.286 E208.80888
G1 X140.535 Y186.947 E208.86279
G1 X140.245 Y186.69 E208.89364
G1 X139.833 Y186.145 E208.94804
G1 X139.617 Y185.526 E209.00024
G1 X139.565 Y185.099 E209.03449
G1 X139.618 Y184.413 E209.08928
G1 X139.894 Y183.774 E209.1447
G1 X140.246 Y183.309 E209.19114
G1 X140.535 Y183.053 E209.22188
G1 X141.041 Y182.76 E209.26844
G1 X141.71 Y182.577 E209.32366
G1 X142.302 Y182.578 E209.3708
G1 X142.88 Y182.716 E209.41812
M204 S3000
M205 X10 Y10
G0 F6000 X142.907 Y182.667
G0 X143.83 Y183.378
G0 X144.375 Y184.416
G0 X144.407 Y185.33
G0 X144.164 Y186.244
G0 X143.656 Y185.893
M204 S1000
M205 X8 Y8
;TYPE:WALL-OUTER
G1 F2700 X143.418 Y186.235 E209.4513
G1 X143.082 Y186.538 E209.48732
G1 X142.669 Y186.758 E209.52458
G1 X142.229 Y186.866 E209.56066
G1 X141.77 Y186.866 E209.5972
G1 X141.301 Y186.744 E209.63579
G1 X140.907 Y186.528 E209.67157
G1 X140.617 Y186.271 E209.70242
G1 X140.321 Y185.845 E209.74373
G1 X140.166 Y185.414 E209.7802
G1 X140.121 Y184.967 E209.81597
G1 X140.166 Y184.586 E209.84652
G1 X140.322 Y184.154 E209.88309
G1 X140.618 Y183.728 E209.92439
G1 X140.962 Y183.434 E209.96043
G1 X141.301 Y183.256 E209.99091
G1 X141.774 Y183.133 E210.02983
G1 X142.23 Y183.134 E210.06614
G1 X142.683 Y183.248 E210.10333
G1 X143.079 Y183.46 E210.1391
G1 X143.415 Y183.762 E210.17507
G1 X143.655 Y184.106 E210.20847
G1 X143.827 Y184.551 E210.24646
G1 X143.879 Y184.975 E210.28047
G1 X143.834 Y185.414 E210.31561
G1 X143.656 Y185.893 E210.3563
M204 S3000
M205 X10 Y10
G0 F6000 X143.542 Y186.057
G0 X144.051 Y186.408
G0 X155.746 Y187
M204 S1000
M205 X8 Y8
;TYPE:WALL-INNER
G1 F2700 X155.314 Y186.357 E210.41798
G1 X155.086 Y185.719 E210.47192
G1 X154.988 Y185 E210.5297
G1 X155.086 Y184.28 E210.58756
G1 X155.311 Y183.669 E210.63941
G1 X155.73 Y183.021 E210.70085
G1 X156.285 Y182.527 E210.76001
G1 X156.932 Y182.187 E210.81821
G1 X157.629 Y182.016 E210.87535
G1 X158.371 Y182.016 E210.93444
G1 X159.073 Y182.188 E210.99199
G1 X159.674 Y182.51 E211.04628
G1 X160.24 Y182.992 E211.10547
G1 X160.683 Y183.639 E211.16791
G1 X160.914 Y184.279 E211.22208
G1 X161.012 Y185 E211.28002
G1 X160.914 Y185.719 E211.3378
G1 X160.685 Y186.359 E211.39193
G1 X160.289 Y186.939 E211.44784
G1 X159.716 Y187.473 E211.51021
G1 X159.021 Y187.829 E211.57239
G1 X158.366 Y187.978 E211.62587
G1 X157.688 Y187.99 E211.67987
G1 X156.979 Y187.829 E211.73776
G1 X156.359 Y187.511 E211.79324
G1 X155.746 Y187 E211.85679
M204 S3000
M205 X10 Y10
G0 F6000 X155.592 Y185.38
G0 X155.566 Y184.402
G0 X155.629 Y184.415
M204 S1000
M205 X8 Y8
G1 F2700 X155.82 Y183.903 E211.9003
G1 X156.149 Y183.411 E211.94743
G1 X156.601 Y182.992 E211.9965
G1 X157.133 Y182.718 E212.04415
G1 X157.703 Y182.574 E212.09096
G1 X158.301 Y182.574 E212.13858
G1 X158.867 Y182.718 E212.18508
G1 X159.368 Y182.979 E212.23006
G1 X159.824 Y183.371 E212.27794
G1 X160.156 Y183.855 E212.32468
G1 X160.371 Y184.415 E212.37244
G1 X160.437 Y184.926 E212.41347
G1 X160.371 Y185.584 E212.46612
G1 X160.157 Y186.143 E212.51378
G1 X159.852 Y186.588 E212.55674
G1 X159.39 Y187.006 E212.60635
G1 X158.871 Y187.28 E212.65308
G1 X158.297 Y187.422 E212.70016
G1 X157.703 Y187.422 E212.74746
G1 X157.129 Y187.28 E212.79454
G1 X156.652 Y187.034 E212.83728
G1 X156.173 Y186.628 E212.88727
G1 X155.819 Y186.095 E212.93822
G1 X155.629 Y185.584 E212.98163
G1 X155.563 Y185.074 E213.02258
G1 X155.629 Y184.415 E213.07531
M204 S3000
M205 X10 Y10
G0 F6000 X156.345 Y184.106
M204 S1000
M205 X8 Y8
;TYPE:WALL-OUTER
G1 F2700 X156.585 Y183.762 E213.10871
G1 X156.933 Y183.451 E213.14587
G1 X157.316 Y183.248 E213.18039
G1 X157.783 Y183.132 E213.2187
G1 X158.217 Y183.132 E213.25326
G1 X158.684 Y183.248 E213.29158
G1 X159.061 Y183.447 E213.32552
G1 X159.415 Y183.762 E213.36325
G1 X159.663 Y184.121 E213.39799
G1 X159.827 Y184.551 E213.43464
G1 X159.879 Y184.975 E213.46865
G1 X159.834 Y185.414 E213.50379
G1 X159.664 Y185.878 E213.54314
G1 X159.416 Y186.237 E213.57788
G1 X159.054 Y186.557 E213.61635
G1 X158.669 Y186.758 E213.65093
G1 X158.229 Y186.866 E213.68701
G1 X157.771 Y186.866 E213.72348
G1 X157.331 Y186.758 E213.75955
G1 X156.918 Y186.538 E213.79681
G1 X156.582 Y186.235 E213.83284
G1 X156.344 Y185.893 E213.86601
G1 X156.173 Y185.449 E213.9039
G1 X156.121 Y185.025 E213.93791
G1 X156.166 Y184.586 E213.97305
G1 X156.345 Y184.106 E214.01384
M204 S3000
M205 X10 Y10
G0 F6000 X156.459 Y183.942
G0 X155.95 Y183.591
G0 X156.612 Y182.987
G0 X157.706 Y182.573
G0 X158.866 Y182.713
G0 X171.134 Y187.287
G0 X173.716 Y187.473
M204 S1000
M205 X8 Y8
;TYPE:WALL-INNER
G1 F2700 X173.021 Y187.829 E214.07602
G1 X172.366 Y187.978 E214.1295
G1 X171.688 Y187.99 E214.1835
G1 X170.979 Y187.829 E214.24139
G1 X170.284 Y187.473 E214.30357
G1 X169.711 Y186.939 E214.36593
G1 X169.315 Y186.359 E214.42185
G1 X169.086 Y185.719 E214.47598
G1 X168.988 Y185 E214.53376
G1 X169.086 Y184.279 E214.59169
G1 X169.317 Y183.639 E214.64587
G1 X169.757 Y182.996 E214.70791
G1 X170.304 Y182.515 E214.76591
G1 X170.933 Y182.187 E214.82239
G1 X171.629 Y182.016 E214.87946
G1 X172.371 Y182.016 E214.93854
G1 X173.07 Y182.188 E214.99586
G1 X173.696 Y182.516 E215.05213
G1 X174.243 Y182.996 E215.11008
G1 X174.683 Y183.639 E215.17212
G1 X174.914 Y184.279 E215.22629
G1 X175.012 Y185 E215.28423
G1 X174.914 Y185.719 E215.34201
G1 X174.685 Y186.359 E215.39613
G1 X174.289 Y186.939 E215.45205
G1 X173.716 Y187.473 E215.51442
M204 S3000
M205 X10 Y10
G0 F6000 X174.375 Y185.584
G0 X174.375 Y184.416
G0 X173.83 Y183.378
G0 X172.866 Y182.713
G0 X172.128 Y182.573
G0 X171.113 Y182.657
G0 X171.133 Y182.718
M204 S1000
M205 X8 Y8
G1 F2700 X171.703 Y182.574 E215.56123
G1 X172.301 Y182.574 E215.60885
G1 X172.867 Y182.718 E215.65535
G1 X173.413 Y183.01 E215.70465
G1 X173.851 Y183.411 E215.75194
G1 X174.156 Y183.855 E215.79483
G1 X174.371 Y184.415 E215.84259
G1 X174.437 Y184.926 E215.88362
G1 X174.371 Y185.584 E215.93627
G1 X174.157 Y186.143 E215.98394
G1 X173.852 Y186.588 E216.02689
G1 X173.39 Y187.006 E216.0765
G1 X172.871 Y187.28 E216.12323
G1 X172.297 Y187.422 E216.17031
G1 X171.703 Y187.422 E216.21761
G1 X171.129 Y187.28 E216.26469
G1 X170.653 Y187.035 E216.30732
G1 X170.181 Y186.636 E216.35653
G1 X169.843 Y186.143 E216.40413
G1 X169.629 Y185.584 E216.45179
G1 X169.563 Y185.074 E216.49274
G1 X169.629 Y184.415 E216.54547
G1 X169.844 Y183.855 E216.59323
G1 X170.149 Y183.411 E216.63612
G1 X170.562 Y183.03 E216.68087
G1 X171.133 Y182.718 E216.73268
M204 S3000
M205 X10 Y10
G0 F6000 X171.113 Y182.657
G0 X169.827 Y183.769
G0 X170.337 Y184.121
M204 S1000
M205 X8 Y8
;TYPE:WALL-OUTER
G1 F2700 X170.585 Y183.762 E216.76742
G1 X170.952 Y183.439 E216.80635
G1 X171.348 Y183.236 E216.84178
G1 X171.783 Y183.132 E216.87739
G1 X172.217 Y183.132 E216.91195
G1 X172.684 Y183.248 E216.95026
G1 X173.061 Y183.447 E216.98421
G1 X173.415 Y183.762 E217.02194
G1 X173.663 Y184.121 E217.05668
G1 X173.827 Y184.551 E217.09333
G1 X173.879 Y184.975 E217.12734
G1 X173.834 Y185.414 E217.16248
G1 X173.664 Y185.878 E217.20183
G1 X173.416 Y186.237 E217.23657
G1 X173.054 Y186.557 E217.27504
G1 X172.669 Y186.758 E217.30962
G1 X172.229 Y186.866 E217.3457
G1 X171.771 Y186.866 E217.38217
G1 X171.331 Y186.758 E217.41824
G1 X170.946 Y186.557 E217.45282
G1 X170.584 Y186.237 E217.49129
G1 X170.336 Y185.878 E217.52604
G1 X170.173 Y185.449 E217.56258
G1 X170.121 Y185.025 E217.59659
G1 X170.166 Y184.586 E217.63173
G1 X170.337 Y184.121 E217.67118
M204 S3000
M205 X10 Y10
G0 F6000 X170.45 Y183.957
G0 X169.94 Y183.605
G0 X170.612 Y182.987
G0 X171.706 Y182.573
G0 X172.455 Y182.612
G0 X183.315 Y186.359
M204 S1000
M205 X8 Y8
;TYPE:WALL-INNER
G1 F2700 X183.065 Y185.661 E217.73022
G1 X183 Y185 E217.7831
G1 X183.066 Y184.335 E217.83631
G1 X183.317 Y183.639 E217.89522
G1 X183.757 Y182.996 E217.95726
G1 X184.304 Y182.515 E218.01526
G1 X184.933 Y182.187 E218.07175
G1 X185.629 Y182.016 E218.12881
G1 X186.371 Y182.016 E218.18789
G1 X187.07 Y182.188 E218.24521
G1 X187.715 Y182.527 E218.30323
G1 X188.242 Y182.996 E218.35941
G1 X188.661 Y183.594 E218.41755
G1 X188.914 Y184.28 E218.47576
G1 X189.012 Y185 E218.53362
G1 X188.914 Y185.719 E218.5914
G1 X188.676 Y186.385 E218.64772
G1 X188.257 Y186.986 E218.70605
G1 X187.724 Y187.469 E218.76333
