;FLAVOR:Marlin
;TIME:8776
;Filament used: 10.7494m
;Layer height: 0.2
;MINX:130.6
;MINY:156.6
;MINZ:0.2
;MAXX:271.4
;MAXY:245.4
;MAXZ:13.8
;Generated with Cura_SteamEngine 5.2.1
M140 S60
M105
M190 S60
M104 S180
M105
M109 S180
M82 ;absolute extrusion mode
; Anycubic Kobra Max
G28 ;Home
G1 Z15.0 F1200 ;Move the platform down 15mm
;Prime the extruder
G92 E0
G1 F200 E3
G92 E0
G92 E0
G92 E0
G1 F2400 E-6
;LAYER_COUNT:69
;LAYER:0
M107
M204 S3000
M205 X10 Y10
G1 F1200 Z0.275
G0 F6000 X132.016 Y157.784 Z0.275
M204 S1000
M205 X8 Y8
;TYPE:SKIRT
G1 F1200 Z0.2
G1 F2400 E0
G1 X132.477 Y157.411 E0.03148
G1 X132.984 Y157.103 E0.06297
G1 X133.527 Y156.866 E0.09442
G1 X134.098 Y156.704 E0.12593
G1 X134.979 Y156.6 E0.17302
G1 X266.356 Y156.6 E7.14692
G1 X267.054 Y156.61 E7.18398
G1 X267.645 Y156.659 E7.21546
G1 X268.224 Y156.786 E7.24693
G1 X268.781 Y156.99 E7.27841
G1 X269.305 Y157.268 E7.3099
G1 X269.787 Y157.613 E7.34137
G1 X270.219 Y158.02 E7.37287
G1 X270.591 Y158.481 E7.40432
G1 X270.899 Y158.988 E7.43581
G1 X271.135 Y159.532 E7.46729
G1 X271.296 Y160.102 E7.49873
G1 X271.4 Y160.979 E7.54561
G1 X271.4 Y240.318 E11.75717
G1 X271.391 Y241.045 E11.79577
G1 X271.343 Y241.637 E11.8273
G1 X271.217 Y242.216 E11.85875
G1 X271.014 Y242.773 E11.89022
G1 X270.738 Y243.298 E11.92171
G1 X270.394 Y243.781 E11.95318
G1 X269.988 Y244.213 E11.98465
G1 X269.527 Y244.586 E12.01613
G1 X269.021 Y244.895 E12.0476
G1 X268.478 Y245.132 E12.07905
G1 X267.907 Y245.295 E12.11057
G1 X267.021 Y245.4 E12.15794
G1 X135.65 Y245.4 E19.13153
G1 X134.952 Y245.391 E19.16858
G1 X134.361 Y245.343 E19.20006
G1 X133.782 Y245.216 E19.23152
G1 X133.225 Y245.013 E19.26299
G1 X132.7 Y244.737 E19.29448
G1 X132.218 Y244.392 E19.32594
G1 X131.786 Y243.986 E19.35741
G1 X131.412 Y243.525 E19.38892
G1 X131.104 Y243.019 E19.42037
G1 X130.867 Y242.475 E19.45187
G1 X130.705 Y241.905 E19.48332
G1 X130.6 Y241.017 E19.53079
G1 X130.6 Y161.614 E23.74575
G1 X130.609 Y160.949 E23.78106
G1 X130.657 Y160.358 E23.81253
G1 X130.784 Y159.779 E23.844
G1 X130.988 Y159.222 E23.87548
G1 X131.265 Y158.698 E23.90695
G1 X131.61 Y158.216 E23.93841
G1 X132.016 Y157.784 E23.96988
M204 S3000
M205 X10 Y10
G0 F6000 X132.562 Y158.05
M204 S1000
M205 X8 Y8
G1 F2400 X133.013 Y157.729 E23.99927
G1 X133.505 Y157.476 E24.02864
G1 X134.029 Y157.296 E24.05805
G1 X134.574 Y157.194 E24.08748
G1 X135.33 Y157.16 E24.12765
G1 X266.348 Y157.16 E31.0825
G1 X267.046 Y157.17 E31.11956
G1 X267.598 Y157.218 E31.14897
G1 X268.137 Y157.345 E31.17837
G1 X268.652 Y157.548 E31.20775
G1 X269.133 Y157.823 E31.23716
G1 X269.569 Y158.164 E31.26654
G1 X269.952 Y158.565 E31.29598
G1 X270.273 Y159.016 E31.32537
G1 X270.526 Y159.509 E31.35478
G1 X270.705 Y160.033 E31.38417
G1 X270.807 Y160.578 E31.41361
G1 X270.84 Y161.33 E31.45356
G1 X270.84 Y240.312 E35.64618
G1 X270.831 Y241.039 E35.68477
G1 X270.784 Y241.59 E35.71413
G1 X270.658 Y242.13 E35.74356
G1 X270.456 Y242.646 E35.77298
G1 X270.182 Y243.127 E35.80236
G1 X269.842 Y243.564 E35.83175
G1 X269.442 Y243.947 E35.86115
G1 X268.991 Y244.269 E35.89057
G1 X268.499 Y244.523 E35.91996
G1 X267.975 Y244.703 E35.94937
G1 X267.431 Y244.806 E35.97876
G1 X266.67 Y244.84 E36.0192
G1 X135.657 Y244.84 E42.97378
G1 X134.959 Y244.831 E43.01084
G1 X134.408 Y244.784 E43.04019
G1 X133.868 Y244.658 E43.06963
G1 X133.353 Y244.455 E43.09901
G1 X132.871 Y244.181 E43.12845
G1 X132.435 Y243.84 E43.15783
G1 X132.052 Y243.44 E43.18722
G1 X131.73 Y242.989 E43.21664
G1 X131.477 Y242.497 E43.24601
G1 X131.297 Y241.973 E43.27542
G1 X131.194 Y241.429 E43.30481
G1 X131.161 Y240.762 E43.34026
G1 X131.16 Y161.622 E47.54126
G1 X131.169 Y160.957 E47.57657
G1 X131.217 Y160.405 E47.60598
G1 X131.343 Y159.866 E47.63536
G1 X131.546 Y159.35 E47.6648
G1 X131.82 Y158.869 E47.69418
G1 X132.161 Y158.433 E47.72356
G1 X132.562 Y158.05 E47.753
M204 S3000
M205 X10 Y10
G0 F6000 X133.103 Y158.339
M204 S1000
M205 X8 Y8
G1 F2400 X133.542 Y158.075 E47.78019
G1 X134.016 Y157.883 E47.80734
G1 X134.514 Y157.766 E47.83449
G1 X135.018 Y157.721 E47.86135
G1 X266.34 Y157.72 E54.83234
G1 X267.038 Y157.73 E54.8694
G1 X267.548 Y157.778 E54.89659
G1 X268.044 Y157.904 E54.92376
G1 X268.514 Y158.105 E54.95089
G1 X268.948 Y158.378 E54.97811
G1 X269.333 Y158.714 E55.00523
G1 X269.662 Y159.106 E55.0324
G1 X269.926 Y159.545 E55.05959
G1 X270.118 Y160.02 E55.08679
G1 X270.234 Y160.518 E55.11393
G1 X270.279 Y161.018 E55.14058
G1 X270.28 Y240.305 E59.34939
G1 X270.271 Y241.032 E59.38798
G1 X270.224 Y241.541 E59.41512
G1 X270.099 Y242.038 E59.44232
G1 X269.899 Y242.509 E59.46948
G1 X269.627 Y242.943 E59.49667
G1 X269.292 Y243.329 E59.5238
G1 X268.9 Y243.658 E59.55097
G1 X268.462 Y243.923 E59.57814
G1 X267.988 Y244.116 E59.60531
G1 X267.489 Y244.233 E59.63252
G1 X266.984 Y244.279 E59.65944
G1 X135.665 Y244.28 E66.63026
G1 X134.967 Y244.271 E66.66732
G1 X134.457 Y244.224 E66.69451
G1 X133.961 Y244.099 E66.72166
G1 X133.49 Y243.898 E66.74884
G1 X133.056 Y243.626 E66.77603
G1 X132.67 Y243.29 E66.8032
G1 X132.341 Y242.898 E66.83036
G1 X132.076 Y242.46 E66.85754
G1 X131.884 Y241.986 E66.88469
G1 X131.767 Y241.488 E66.91184
G1 X131.721 Y240.981 E66.93886
G1 X131.72 Y161.63 E71.15107
G1 X131.729 Y160.965 E71.18637
G1 X131.776 Y160.455 E71.21356
G1 X131.902 Y159.959 E71.24072
G1 X132.103 Y159.488 E71.26791
G1 X132.375 Y159.054 E71.2951
G1 X132.711 Y158.668 E71.32226
G1 X133.103 Y158.339 E71.34943
M204 S3000
M205 X10 Y10
G1 F2400 E65.34943
;MESH:Deckel-komplett-V01.stl
G0 F6000 X135.414 Y160.335
G0 X135.414 Y161.414
G0 X136.4 Y162.4
M204 S1000
M205 X8 Y8
;TYPE:WALL-INNER
G1 F2400 E71.34943
G1 F2700 X136.4 Y239.6 E75.44745
G1 X265.6 Y239.6 E82.3058
G1 X265.6 Y201 E84.35481
G1 X265.6 Y162.4 E86.40382
G1 X136.4 Y162.4 E93.26216
M204 S3000
M205 X10 Y10
G0 F6000 X135.84 Y161.84
M204 S1000
M205 X8 Y8
G1 F2700 X135.84 Y240.16 E97.41964
G1 X266.16 Y240.16 E104.33744
G1 X266.16 Y201 E106.41617
G1 X266.16 Y161.84 E108.49491
G1 X135.84 Y161.84 E115.41271
M204 S3000
M205 X10 Y10
G0 F6000 X135.28 Y161.28
M204 S1000
M205 X8 Y8
;TYPE:WALL-OUTER
G1 F2700 X135.28 Y240.72 E119.62964
G1 X266.72 Y240.72 E126.60689
G1 X266.72 Y201 E128.71535
G1 X266.72 Y161.28 E130.82382
G1 X135.28 Y161.28 E137.80107
M204 S3000
M205 X10 Y10
G0 F6000 X135.28 Y161.48
G0 X135.87 Y161.87
G0 X136.94 Y162.94
M204 S1000
M205 X8 Y8
;TYPE:SKIN
G1 F2700 X136.94 Y239.06 E141.84176
G1 X265.06 Y239.06 E148.64278
G1 X265.06 Y201 E150.66312
G1 X265.06 Y162.94 E152.68347
G1 X136.94 Y162.94 E159.48449
M204 S3000
M205 X10 Y10
G0 F6000 X137.408 Y238.779
M204 S1000
M205 X8 Y8
G1 F2700 X137.22 Y238.591 E159.4986
M204 S3000
M205 X10 Y10
G0 F6000 X137.22 Y237.799
M204 S1000
M205 X8 Y8
G1 F2700 X138.2 Y238.779 E159.57217
M204 S3000
M205 X10 Y10
G0 F6000 X138.992 Y238.779
M204 S1000
M205 X8 Y8
G1 F2700 X137.22 Y237.007 E159.70519
M204 S3000
M205 X10 Y10
G0 F6000 X137.22 Y236.215
M204 S1000
M205 X8 Y8
G1 F2700 X139.784 Y238.779 E159.89768
M204 S3000
M205 X10 Y10
G0 F6000 X140.576 Y238.779
M204 S1000
M205 X8 Y8
G1 F2700 X137.22 Y235.423 E160.14961
M204 S3000
M205 X10 Y10
G0 F6000 X137.22 Y234.631
M204 S1000
M205 X8 Y8
G1 F2700 X141.368 Y238.779 E160.46101
M204 S3000
M205 X10 Y10
G0 F6000 X142.16 Y238.779
M204 S1000
M205 X8 Y8
G1 F2700 X137.22 Y233.839 E160.83186
M204 S3000
M205 X10 Y10
G0 F6000 X137.22 Y233.047
M204 S1000
M205 X8 Y8
G1 F2700 X142.952 Y238.779 E161.26217
M204 S3000
M205 X10 Y10
G0 F6000 X143.744 Y238.779
M204 S1000
M205 X8 Y8
G1 F2700 X137.22 Y232.255 E161.75193
M204 S3000
M205 X10 Y10
G0 F6000 X137.22 Y231.463
M204 S1000
M205 X8 Y8
G1 F2700 X144.536 Y238.779 E162.30115
M204 S3000
M205 X10 Y10
G0 F6000 X145.328 Y238.779
M204 S1000
M205 X8 Y8
G1 F2700 X137.22 Y230.671 E162.90982
M204 S3000
M205 X10 Y10
G0 F6000 X137.22 Y229.879
M204 S1000
M205 X8 Y8
G1 F2700 X146.12 Y238.779 E163.57795
M204 S3000
M205 X10 Y10
G0 F6000 X146.912 Y238.779
M204 S1000
M205 X8 Y8
G1 F2700 X137.22 Y229.087 E164.30554
M204 S3000
M205 X10 Y10
G0 F6000 X137.22 Y228.295
M204 S1000
M205 X8 Y8
G1 F2700 X147.703 Y238.779 E165.09255
M204 S3000
M205 X10 Y10
G0 F6000 X148.495 Y238.779
M204 S1000
M205 X8 Y8
G1 F2700 X137.22 Y227.503 E165.93901
M204 S3000
M205 X10 Y10
G0 F6000 X137.22 Y226.711
M204 S1000
M205 X8 Y8
G1 F2700 X149.287 Y238.779 E166.84493
M204 S3000
M205 X10 Y10
G0 F6000 X150.079 Y238.779
M204 S1000
M205 X8 Y8
G1 F2700 X137.22 Y225.919 E167.8103
M204 S3000
M205 X10 Y10
G0 F6000 X137.22 Y225.127
M204 S1000
M205 X8 Y8
G1 F2700 X150.871 Y238.779 E168.83514
M204 S3000
M205 X10 Y10
G0 F6000 X151.663 Y238.779
M204 S1000
M205 X8 Y8
G1 F2700 X137.22 Y224.335 E169.91942
M204 S3000
M205 X10 Y10
G0 F6000 X137.22 Y223.544
M204 S1000
M205 X8 Y8
G1 F2700 X152.455 Y238.779 E171.06313
M204 S3000
M205 X10 Y10
G0 F6000 X153.247 Y238.779
M204 S1000
M205 X8 Y8
G1 F2700 X137.22 Y222.752 E172.26629
M204 S3000
M205 X10 Y10
G0 F6000 X137.22 Y221.96
M204 S1000
M205 X8 Y8
G1 F2700 X154.039 Y238.779 E173.52891
M204 S3000
M205 X10 Y10
G0 F6000 X154.831 Y238.779
M204 S1000
M205 X8 Y8
G1 F2700 X137.22 Y221.168 E174.85098
M204 S3000
M205 X10 Y10
G0 F6000 X137.22 Y220.376
M204 S1000
M205 X8 Y8
G1 F2700 X155.623 Y238.779 E176.23251
M204 S3000
M205 X10 Y10
G0 F6000 X156.415 Y238.779
M204 S1000
M205 X8 Y8
G1 F2700 X137.22 Y219.584 E177.6735
M204 S3000
M205 X10 Y10
G0 F6000 X137.22 Y218.792
M204 S1000
M205 X8 Y8
G1 F2700 X157.207 Y238.779 E179.17394
M204 S3000
M205 X10 Y10
G0 F6000 X157.999 Y238.779
M204 S1000
M205 X8 Y8
G1 F2700 X137.22 Y218 E180.73384
M204 S3000
M205 X10 Y10
G0 F6000 X137.22 Y217.208
M204 S1000
M205 X8 Y8
G1 F2700 X158.791 Y238.779 E182.3532
M204 S3000
M205 X10 Y10
G0 F6000 X159.583 Y238.779
M204 S1000
M205 X8 Y8
G1 F2700 X137.22 Y216.416 E184.03201
M204 S3000
M205 X10 Y10
G0 F6000 X137.22 Y215.624
M204 S1000
M205 X8 Y8
G1 F2700 X160.375 Y238.779 E185.77028
M204 S3000
M205 X10 Y10
G0 F6000 X161.167 Y238.779
M204 S1000
M205 X8 Y8
G1 F2700 X137.22 Y214.832 E187.568
M204 S3000
M205 X10 Y10
G0 F6000 X137.22 Y214.04
M204 S1000
M205 X8 Y8
G1 F2700 X161.959 Y238.779 E189.42518
M204 S3000
M205 X10 Y10
G0 F6000 X162.751 Y238.779
M204 S1000
M205 X8 Y8
G1 F2700 X137.22 Y213.248 E191.34182
M204 S3000
M205 X10 Y10
G0 F6000 X137.22 Y212.456
M204 S1000
M205 X8 Y8
G1 F2700 X163.543 Y238.779 E193.31791
M204 S3000
M205 X10 Y10
G0 F6000 X164.335 Y238.779
M204 S1000
M205 X8 Y8
G1 F2700 X137.22 Y211.664 E195.35346
M204 S3000
M205 X10 Y10
G0 F6000 X137.22 Y210.872
M204 S1000
M205 X8 Y8
G1 F2700 X165.127 Y238.779 E197.44846
M204 S3000
M205 X10 Y10
G0 F6000 X165.919 Y238.779
M204 S1000
M205 X8 Y8
G1 F2700 X137.22 Y210.08 E199.60293
M204 S3000
M205 X10 Y10
G0 F6000 X137.22 Y209.288
M204 S1000
M205 X8 Y8
G1 F2700 X166.711 Y238.779 E201.81684
M204 S3000
M205 X10 Y10
G0 F6000 X167.502 Y238.779
M204 S1000
M205 X8 Y8
G1 F2700 X137.22 Y208.496 E204.09018
M204 S3000
M205 X10 Y10
G0 F6000 X137.22 Y207.704
M204 S1000
M205 X8 Y8
G1 F2700 X168.294 Y238.779 E206.42297
M204 S3000
M205 X10 Y10
G0 F6000 X169.086 Y238.779
M204 S1000
M205 X8 Y8
G1 F2700 X137.22 Y206.912 E208.81522
M204 S3000
M205 X10 Y10
G0 F6000 X137.22 Y206.12
M204 S1000
M205 X8 Y8
G1 F2700 X169.878 Y238.779 E211.26692
M204 S3000
M205 X10 Y10
G0 F6000 X170.67 Y238.779
M204 S1000
M205 X8 Y8
G1 F2700 X137.22 Y205.328 E213.77808
M204 S3000
M205 X10 Y10
G0 F6000 X137.22 Y204.537
M204 S1000
M205 X8 Y8
G1 F2700 X171.462 Y238.779 E216.34866
M204 S3000
M205 X10 Y10
G0 F6000 X172.254 Y238.779
M204 S1000
M205 X8 Y8
G1 F2700 X137.22 Y203.745 E218.9787
M204 S3000
M205 X10 Y10
G0 F6000 X137.22 Y202.953
M204 S1000
M205 X8 Y8
G1 F2700 X173.046 Y238.779 E221.66819
M204 S3000
M205 X10 Y10
G0 F6000 X173.838 Y238.779
M204 S1000
M205 X8 Y8
G1 F2700 X137.22 Y202.161 E224.41714
M204 S3000
M205 X10 Y10
G0 F6000 X137.22 Y201.369
M204 S1000
M205 X8 Y8
G1 F2700 X174.63 Y238.779 E227.22554
M204 S3000
M205 X10 Y10
G0 F6000 X175.422 Y238.779
M204 S1000
M205 X8 Y8
G1 F2700 X137.22 Y200.577 E230.0934
M204 S3000
M205 X10 Y10
G0 F6000 X137.22 Y199.785
M204 S1000
M205 X8 Y8
G1 F2700 X176.214 Y238.779 E233.02072
M204 S3000
M205 X10 Y10
G0 F6000 X177.006 Y238.779
M204 S1000
M205 X8 Y8
G1 F2700 X137.22 Y198.993 E236.00749
M204 S3000
M205 X10 Y10
G0 F6000 X137.22 Y198.201
M204 S1000
M205 X8 Y8
G1 F2700 X177.798 Y238.779 E239.05372
M204 S3000
M205 X10 Y10
G0 F6000 X178.59 Y238.779
M204 S1000
M205 X8 Y8
G1 F2700 X137.22 Y197.409 E242.15941
M204 S3000
M205 X10 Y10
G0 F6000 X137.22 Y196.617
M204 S1000
M205 X8 Y8
G1 F2700 X179.382 Y238.779 E245.32455
M204 S3000
M205 X10 Y10
G0 F6000 X180.174 Y238.779
M204 S1000
M205 X8 Y8
G1 F2700 X137.22 Y195.825 E248.54914
M204 S3000
M205 X10 Y10
G0 F6000 X137.22 Y195.033
M204 S1000
M205 X8 Y8
G1 F2700 X180.966 Y238.779 E251.8332
M204 S3000
M205 X10 Y10
G0 F6000 X181.758 Y238.779
M204 S1000
M205 X8 Y8
G1 F2700 X137.22 Y194.241 E255.17671
M204 S3000
M205 X10 Y10
G0 F6000 X137.22 Y193.449
M204 S1000
M205 X8 Y8
G1 F2700 X182.55 Y238.779 E258.57967
M204 S3000
M205 X10 Y10
G0 F6000 X183.342 Y238.779
M204 S1000
M205 X8 Y8
G1 F2700 X137.22 Y192.657 E262.0421
M204 S3000
M205 X10 Y10
G0 F6000 X137.22 Y191.865
M204 S1000
M205 X8 Y8
G1 F2700 X184.134 Y238.779 E265.56398
M204 S3000
M205 X10 Y10
G0 F6000 X184.926 Y238.779
M204 S1000
M205 X8 Y8
G1 F2700 X137.22 Y191.073 E269.14531
M204 S3000
M205 X10 Y10
G0 F6000 X137.22 Y190.281
M204 S1000
M205 X8 Y8
G1 F2700 X185.718 Y238.779 E272.7861
M204 S3000
M205 X10 Y10
G0 F6000 X186.51 Y238.779
M204 S1000
M205 X8 Y8
G1 F2700 X137.22 Y189.489 E276.48635
M204 S3000
M205 X10 Y10
G0 F6000 X137.22 Y188.697
M204 S1000
M205 X8 Y8
G1 F2700 X187.301 Y238.779 E280.24601
M204 S3000
M205 X10 Y10
G0 F6000 X188.093 Y238.779
M204 S1000
M205 X8 Y8
G1 F2700 X137.22 Y187.905 E284.06513
M204 S3000
M205 X10 Y10
G0 F6000 X137.22 Y187.113
M204 S1000
M205 X8 Y8
G1 F2700 X188.885 Y238.779 E287.94371
M204 S3000
M205 X10 Y10
G0 F6000 X189.677 Y238.779
M204 S1000
M205 X8 Y8
G1 F2700 X137.22 Y186.321 E291.88175
M204 S3000
M205 X10 Y10
G0 F6000 X137.22 Y185.529
M204 S1000
M205 X8 Y8
G1 F2700 X190.469 Y238.779 E295.87924
M204 S3000
M205 X10 Y10
G0 F6000 X191.261 Y238.779
M204 S1000
M205 X8 Y8
G1 F2700 X137.22 Y184.738 E299.93615
M204 S3000
M205 X10 Y10
G0 F6000 X137.22 Y183.946
M204 S1000
M205 X8 Y8
G1 F2700 X192.053 Y238.779 E304.05251
M204 S3000
M205 X10 Y10
G0 F6000 X192.845 Y238.779
M204 S1000
M205 X8 Y8
G1 F2700 X137.22 Y183.154 E308.22833
M204 S3000
M205 X10 Y10
G0 F6000 X137.22 Y182.362
M204 S1000
M205 X8 Y8
G1 F2700 X193.637 Y238.779 E312.46361
M204 S3000
M205 X10 Y10
G0 F6000 X194.429 Y238.779
M204 S1000
M205 X8 Y8
G1 F2700 X137.22 Y181.57 E316.75834
M204 S3000
M205 X10 Y10
G0 F6000 X137.22 Y180.778
M204 S1000
M205 X8 Y8
G1 F2700 X195.221 Y238.779 E321.11253
M204 S3000
M205 X10 Y10
G0 F6000 X196.013 Y238.779
M204 S1000
M205 X8 Y8
G1 F2700 X137.22 Y179.986 E325.52618
M204 S3000
M205 X10 Y10
G0 F6000 X137.22 Y179.194
M204 S1000
M205 X8 Y8
G1 F2700 X196.805 Y238.779 E329.99928
M204 S3000
M205 X10 Y10
G0 F6000 X197.597 Y238.779
M204 S1000
M205 X8 Y8
G1 F2700 X137.22 Y178.402 E334.53184
M204 S3000
M205 X10 Y10
G0 F6000 X137.22 Y177.61
M204 S1000
M205 X8 Y8
G1 F2700 X198.389 Y238.779 E339.12386
M204 S3000
M205 X10 Y10
G0 F6000 X199.181 Y238.779
M204 S1000
M205 X8 Y8
G1 F2700 X137.22 Y176.818 E343.77533
M204 S3000
M205 X10 Y10
G0 F6000 X137.22 Y176.026
M204 S1000
M205 X8 Y8
G1 F2700 X199.973 Y238.779 E348.48625
M204 S3000
M205 X10 Y10
G0 F6000 X200.765 Y238.779
M204 S1000
M205 X8 Y8
G1 F2700 X137.22 Y175.234 E353.25664
M204 S3000
M205 X10 Y10
G0 F6000 X137.22 Y174.442
M204 S1000
M205 X8 Y8
G1 F2700 X201.557 Y238.779 E358.08648
M204 S3000
M205 X10 Y10
G0 F6000 X202.349 Y238.779
M204 S1000
M205 X8 Y8
G1 F2700 X137.22 Y173.65 E362.97577
M204 S3000
M205 X10 Y10
G0 F6000 X137.22 Y172.858
M204 S1000
M205 X8 Y8
G1 F2700 X203.141 Y238.779 E367.92452
M204 S3000
M205 X10 Y10
G0 F6000 X203.933 Y238.779
M204 S1000
M205 X8 Y8
G1 F2700 X137.22 Y172.066 E372.93273
M204 S3000
M205 X10 Y10
G0 F6000 X137.22 Y171.274
M204 S1000
M205 X8 Y8
G1 F2700 X204.725 Y238.779 E378.0004
M204 S3000
M205 X10 Y10
G0 F6000 X205.517 Y238.779
M204 S1000
M205 X8 Y8
G1 F2700 X137.22 Y170.482 E383.12752
M204 S3000
M205 X10 Y10
