;FLAVOR:Marlin
;TIME:10342
;Filament used: 20.6643m
;Layer height: 0.3
;MINX:153.6
;MINY:184.1
;MINZ:0.3
;MAXX:248.4
;MAXY:217.9
;MAXZ:135
;Generated with Cura_SteamEngine 5.2.1
M140 S60
M105
M190 S60
M104 S180
M105
M109 S180
M82 ;absolute extrusion mode
; Anycubic Kobra Max
G28 ;Home
G1 Z15.0 F1200 ;Move the platform down 15mm
;Prime the extruder
G92 E0
G1 F200 E3
G92 E0
G92 E0
G92 E0
G1 F2400 E-6
;LAYER_COUNT:450
;LAYER:0
M107
M204 S3000
M205 X10 Y10
G1 F1200 Z0.375
G0 F6000 X155.016 Y185.284 Z0.375
M204 S1000
M205 X8 Y8
;TYPE:SKIRT
G1 F1200 Z0.3
G1 F2400 E0
G1 X155.477 Y184.911 E0.04722
G1 X155.984 Y184.603 E0.09445
G1 X156.527 Y184.366 E0.14163
G1 X157.098 Y184.204 E0.18889
G1 X157.979 Y184.1 E0.25952
G1 X243.356 Y184.1 E7.05765
G1 X244.054 Y184.11 E7.11323
G1 X244.645 Y184.159 E7.16045
G1 X245.224 Y184.286 E7.20765
G1 X245.781 Y184.49 E7.25488
G1 X246.305 Y184.768 E7.30211
G1 X246.787 Y185.113 E7.34931
G1 X247.219 Y185.52 E7.39657
G1 X247.591 Y185.981 E7.44374
G1 X247.899 Y186.488 E7.49097
G1 X248.135 Y187.032 E7.53819
G1 X248.296 Y187.602 E7.58535
G1 X248.4 Y188.479 E7.65567
G1 X248.4 Y212.818 E9.59366
G1 X248.391 Y213.545 E9.65155
G1 X248.343 Y214.137 E9.69884
G1 X248.217 Y214.716 E9.74602
G1 X248.014 Y215.273 E9.79323
G1 X247.738 Y215.798 E9.84046
G1 X247.394 Y216.281 E9.88767
G1 X246.988 Y216.713 E9.93488
G1 X246.527 Y217.086 E9.9821
G1 X246.021 Y217.395 E10.0293
G1 X245.478 Y217.632 E10.07648
G1 X244.907 Y217.795 E10.12376
G1 X244.021 Y217.9 E10.1948
G1 X158.65 Y217.9 E16.99245
G1 X157.952 Y217.891 E17.04803
G1 X157.361 Y217.843 E17.09524
G1 X156.782 Y217.716 E17.14244
G1 X156.225 Y217.513 E17.18965
G1 X155.7 Y217.237 E17.23687
G1 X155.218 Y216.892 E17.28407
G1 X154.786 Y216.486 E17.33128
G1 X154.412 Y216.025 E17.37854
G1 X154.104 Y215.519 E17.42571
G1 X153.867 Y214.975 E17.47296
G1 X153.705 Y214.405 E17.52014
G1 X153.6 Y213.517 E17.59134
G1 X153.6 Y189.114 E19.53443
G1 X153.609 Y188.449 E19.58738
G1 X153.657 Y187.858 E19.63459
G1 X153.784 Y187.279 E19.68179
G1 X153.988 Y186.722 E19.72903
G1 X154.265 Y186.198 E19.77622
G1 X154.61 Y185.716 E19.82342
G1 X155.016 Y185.284 E19.87062
M204 S3000
M205 X10 Y10
G0 F6000 X155.562 Y185.55
M204 S1000
M205 X8 Y8
G1 F2400 X156.013 Y185.229 E19.9147
G1 X156.505 Y184.976 E19.95875
G1 X157.029 Y184.796 E20.00287
G1 X157.574 Y184.694 E20.04702
G1 X158.33 Y184.66 E20.10727
G1 X243.348 Y184.66 E26.87681
G1 X244.046 Y184.67 E26.9324
G1 X244.598 Y184.718 E26.97651
G1 X245.137 Y184.845 E27.02061
G1 X245.652 Y185.048 E27.06468
G1 X246.133 Y185.323 E27.1088
G1 X246.569 Y185.664 E27.15288
G1 X246.952 Y186.065 E27.19703
G1 X247.273 Y186.516 E27.24111
G1 X247.526 Y187.009 E27.28523
G1 X247.705 Y187.533 E27.32932
G1 X247.807 Y188.078 E27.37347
G1 X247.84 Y188.83 E27.4334
G1 X247.84 Y212.812 E29.34297
G1 X247.831 Y213.539 E29.40086
G1 X247.784 Y214.09 E29.44489
G1 X247.658 Y214.63 E29.48904
G1 X247.456 Y215.146 E29.53316
G1 X247.182 Y215.627 E29.57724
G1 X246.842 Y216.064 E29.62133
G1 X246.442 Y216.447 E29.66542
G1 X245.991 Y216.769 E29.70955
G1 X245.499 Y217.023 E29.75364
G1 X244.975 Y217.203 E29.79775
G1 X244.431 Y217.306 E29.84184
G1 X243.67 Y217.34 E29.90249
G1 X158.657 Y217.34 E36.67163
G1 X157.959 Y217.331 E36.72722
G1 X157.408 Y217.284 E36.77125
G1 X156.868 Y217.158 E36.8154
G1 X156.353 Y216.955 E36.85948
G1 X155.871 Y216.681 E36.90363
G1 X155.435 Y216.34 E36.9477
G1 X155.052 Y215.94 E36.9918
G1 X154.73 Y215.489 E37.03592
G1 X154.477 Y214.997 E37.07997
G1 X154.297 Y214.473 E37.12409
G1 X154.194 Y213.929 E37.16817
G1 X154.161 Y213.262 E37.22135
G1 X154.16 Y189.122 E39.14349
G1 X154.169 Y188.457 E39.19644
G1 X154.217 Y187.905 E39.24056
G1 X154.343 Y187.366 E39.28464
G1 X154.546 Y186.85 E39.32879
G1 X154.82 Y186.369 E39.37287
G1 X155.161 Y185.933 E39.41694
G1 X155.562 Y185.55 E39.46109
M204 S3000
M205 X10 Y10
G0 F6000 X156.103 Y185.839
M204 S1000
M205 X8 Y8
G1 F2400 X156.542 Y185.575 E39.50188
G1 X157.016 Y185.383 E39.5426
G1 X157.514 Y185.266 E39.58334
G1 X158.018 Y185.221 E39.62363
G1 X243.34 Y185.22 E46.41737
G1 X244.038 Y185.23 E46.47296
G1 X244.548 Y185.278 E46.51374
G1 X245.044 Y185.404 E46.55449
G1 X245.514 Y185.605 E46.59519
G1 X245.948 Y185.878 E46.63602
G1 X246.333 Y186.214 E46.67671
G1 X246.662 Y186.606 E46.71746
G1 X246.926 Y187.045 E46.75825
G1 X247.118 Y187.52 E46.79904
G1 X247.234 Y188.018 E46.83976
G1 X247.279 Y188.518 E46.87973
G1 X247.28 Y212.805 E48.81358
G1 X247.271 Y213.532 E48.87147
G1 X247.224 Y214.041 E48.91217
G1 X247.099 Y214.538 E48.95297
G1 X246.899 Y215.009 E48.99372
G1 X246.627 Y215.443 E49.0345
G1 X246.292 Y215.829 E49.0752
G1 X245.9 Y216.158 E49.11595
G1 X245.462 Y216.423 E49.15671
G1 X244.988 Y216.616 E49.19746
G1 X244.489 Y216.733 E49.23827
G1 X243.984 Y216.779 E49.27865
G1 X158.665 Y216.78 E56.07215
G1 X157.967 Y216.771 E56.12774
G1 X157.457 Y216.724 E56.16852
G1 X156.961 Y216.599 E56.20924
G1 X156.49 Y216.398 E56.25002
G1 X156.056 Y216.126 E56.2908
G1 X155.67 Y215.79 E56.33155
G1 X155.341 Y215.398 E56.3723
G1 X155.076 Y214.96 E56.41306
G1 X154.884 Y214.486 E56.45378
G1 X154.767 Y213.988 E56.49452
G1 X154.721 Y213.481 E56.53505
G1 X154.72 Y189.13 E58.47399
G1 X154.729 Y188.465 E58.52695
G1 X154.776 Y187.955 E58.56773
G1 X154.902 Y187.459 E58.60848
G1 X155.103 Y186.988 E58.64925
G1 X155.375 Y186.554 E58.69004
G1 X155.711 Y186.168 E58.73079
G1 X156.103 Y185.839 E58.77154
M204 S3000
M205 X10 Y10
G1 F2400 E52.77154
;MESH:Gehaeuse-V01.stl
G0 F6000 X158.414 Y187.835
G0 X158.414 Y188.914
G0 X159.4 Y189.9
M204 S1000
M205 X8 Y8
;TYPE:WALL-INNER
G1 F2400 E58.77154
G1 F2700 X159.4 Y212.1 E60.5392
G1 X242.6 Y212.1 E67.16399
G1 X242.6 Y201 E68.04782
G1 X242.6 Y189.9 E68.93165
G1 X159.4 Y189.9 E75.55644
M204 S3000
M205 X10 Y10
G0 F6000 X158.84 Y189.34
M204 S1000
M205 X8 Y8
G1 F2700 X158.84 Y212.66 E77.41328
G1 X243.16 Y212.66 E84.12724
G1 X243.16 Y201 E85.05567
G1 X243.16 Y189.34 E85.98409
G1 X158.84 Y189.34 E92.69805
M204 S3000
M205 X10 Y10
G0 F6000 X158.28 Y188.78
M204 S1000
M205 X8 Y8
;TYPE:WALL-OUTER
G1 F2700 X158.28 Y213.22 E94.64408
G1 X243.72 Y213.22 E101.44722
G1 X243.72 Y201 E102.42024
G1 X243.72 Y188.78 E103.39325
G1 X158.28 Y188.78 E110.19639
M204 S3000
M205 X10 Y10
G0 F6000 X158.28 Y188.98
G0 X158.87 Y189.37
G0 X159.94 Y190.44
M204 S1000
M205 X8 Y8
;TYPE:SKIN
G1 F2700 X159.94 Y211.56 E111.87807
G1 X242.06 Y211.56 E118.41685
G1 X242.06 Y201 E119.25769
G1 X242.06 Y190.44 E120.09853
G1 X159.94 Y190.44 E126.63731
M204 S3000
M205 X10 Y10
G0 F6000 X160.593 Y211.279
M204 S1000
M205 X8 Y8
G1 F2700 X160.22 Y210.905 E126.67937
M204 S3000
M205 X10 Y10
G0 F6000 X160.22 Y210.113
M204 S1000
M205 X8 Y8
G1 F2700 X161.385 Y211.279 E126.81061
M204 S3000
M205 X10 Y10
G0 F6000 X162.177 Y211.279
M204 S1000
M205 X8 Y8
G1 F2700 X160.22 Y209.321 E127.03104
M204 S3000
M205 X10 Y10
G0 F6000 X160.22 Y208.53
M204 S1000
M205 X8 Y8
G1 F2700 X162.969 Y211.279 E127.3406
M204 S3000
M205 X10 Y10
G0 F6000 X163.761 Y211.279
M204 S1000
M205 X8 Y8
G1 F2700 X160.22 Y207.738 E127.73934
M204 S3000
M205 X10 Y10
G0 F6000 X160.22 Y206.946
M204 S1000
M205 X8 Y8
G1 F2700 X164.553 Y211.279 E128.22726
M204 S3000
M205 X10 Y10
G0 F6000 X165.345 Y211.279
M204 S1000
M205 X8 Y8
G1 F2700 X160.22 Y206.154 E128.80437
M204 S3000
M205 X10 Y10
G0 F6000 X160.22 Y205.362
M204 S1000
M205 X8 Y8
G1 F2700 X166.137 Y211.279 E129.47066
M204 S3000
M205 X10 Y10
G0 F6000 X166.929 Y211.279
M204 S1000
M205 X8 Y8
G1 F2700 X160.22 Y204.57 E130.22614
M204 S3000
M205 X10 Y10
G0 F6000 X160.22 Y203.778
M204 S1000
M205 X8 Y8
G1 F2700 X167.721 Y211.279 E131.0708
M204 S3000
M205 X10 Y10
G0 F6000 X168.513 Y211.279
M204 S1000
M205 X8 Y8
G1 F2700 X160.22 Y202.986 E132.00464
M204 S3000
M205 X10 Y10
G0 F6000 X160.22 Y202.194
M204 S1000
M205 X8 Y8
G1 F2700 X169.305 Y211.279 E133.02767
M204 S3000
M205 X10 Y10
G0 F6000 X170.097 Y211.279
M204 S1000
M205 X8 Y8
G1 F2700 X160.22 Y201.402 E134.13989
M204 S3000
M205 X10 Y10
G0 F6000 X160.22 Y200.61
M204 S1000
M205 X8 Y8
G1 F2700 X170.889 Y211.279 E135.34128
M204 S3000
M205 X10 Y10
G0 F6000 X171.681 Y211.279
M204 S1000
M205 X8 Y8
G1 F2700 X160.22 Y199.818 E136.63187
M204 S3000
M205 X10 Y10
G0 F6000 X160.22 Y199.026
M204 S1000
M205 X8 Y8
G1 F2700 X172.473 Y211.279 E138.01163
M204 S3000
M205 X10 Y10
G0 F6000 X173.265 Y211.279
M204 S1000
M205 X8 Y8
G1 F2700 X160.22 Y198.234 E139.48058
M204 S3000
M205 X10 Y10
G0 F6000 X160.22 Y197.442
M204 S1000
M205 X8 Y8
G1 F2700 X174.057 Y211.279 E141.03872
M204 S3000
M205 X10 Y10
G0 F6000 X174.849 Y211.279
M204 S1000
M205 X8 Y8
G1 F2700 X160.22 Y196.65 E142.68604
M204 S3000
M205 X10 Y10
G0 F6000 X160.22 Y195.858
M204 S1000
M205 X8 Y8
G1 F2700 X175.641 Y211.279 E144.42254
M204 S3000
M205 X10 Y10
G0 F6000 X176.433 Y211.279
M204 S1000
M205 X8 Y8
G1 F2700 X160.22 Y195.066 E146.24823
M204 S3000
M205 X10 Y10
G0 F6000 X160.22 Y194.274
M204 S1000
M205 X8 Y8
G1 F2700 X177.225 Y211.279 E148.1631
M204 S3000
M205 X10 Y10
G0 F6000 X178.016 Y211.279
M204 S1000
M205 X8 Y8
G1 F2700 X160.22 Y193.482 E150.1671
M204 S3000
M205 X10 Y10
G0 F6000 X160.22 Y192.69
M204 S1000
M205 X8 Y8
G1 F2700 X178.808 Y211.279 E152.26028
M204 S3000
M205 X10 Y10
G0 F6000 X179.6 Y211.279
M204 S1000
M205 X8 Y8
G1 F2700 X160.22 Y191.898 E154.44265
M204 S3000
M205 X10 Y10
G0 F6000 X160.22 Y191.106
M204 S1000
M205 X8 Y8
G1 F2700 X180.392 Y211.279 E156.71421
M204 S3000
M205 X10 Y10
G0 F6000 X181.184 Y211.279
M204 S1000
M205 X8 Y8
G1 F2700 X160.625 Y190.72 E159.02928
M204 S3000
M205 X10 Y10
G0 F6000 X161.417 Y190.72
M204 S1000
M205 X8 Y8
G1 F2700 X181.976 Y211.279 E161.34436
M204 S3000
M205 X10 Y10
G0 F6000 X182.768 Y211.279
M204 S1000
M205 X8 Y8
G1 F2700 X162.209 Y190.72 E163.65943
M204 S3000
M205 X10 Y10
G0 F6000 X163.001 Y190.72
M204 S1000
M205 X8 Y8
G1 F2700 X183.56 Y211.279 E165.97451
M204 S3000
M205 X10 Y10
G0 F6000 X184.352 Y211.279
M204 S1000
M205 X8 Y8
G1 F2700 X163.793 Y190.72 E168.28958
M204 S3000
M205 X10 Y10
G0 F6000 X164.585 Y190.72
M204 S1000
M205 X8 Y8
G1 F2700 X185.144 Y211.279 E170.60466
M204 S3000
M205 X10 Y10
G0 F6000 X185.936 Y211.279
M204 S1000
M205 X8 Y8
G1 F2700 X165.377 Y190.72 E172.91973
M204 S3000
M205 X10 Y10
G0 F6000 X166.169 Y190.72
M204 S1000
M205 X8 Y8
G1 F2700 X186.728 Y211.279 E175.23481
M204 S3000
M205 X10 Y10
G0 F6000 X187.52 Y211.279
M204 S1000
M205 X8 Y8
G1 F2700 X166.961 Y190.72 E177.54989
M204 S3000
M205 X10 Y10
G0 F6000 X167.753 Y190.72
M204 S1000
M205 X8 Y8
G1 F2700 X188.312 Y211.279 E179.86496
M204 S3000
M205 X10 Y10
G0 F6000 X189.104 Y211.279
M204 S1000
M205 X8 Y8
G1 F2700 X168.545 Y190.72 E182.18004
M204 S3000
M205 X10 Y10
G0 F6000 X169.337 Y190.72
M204 S1000
M205 X8 Y8
G1 F2700 X189.896 Y211.279 E184.49511
M204 S3000
M205 X10 Y10
G0 F6000 X190.688 Y211.279
M204 S1000
M205 X8 Y8
G1 F2700 X170.129 Y190.72 E186.81019
M204 S3000
M205 X10 Y10
G0 F6000 X170.921 Y190.72
M204 S1000
M205 X8 Y8
G1 F2700 X191.48 Y211.279 E189.12526
M204 S3000
M205 X10 Y10
G0 F6000 X192.272 Y211.279
M204 S1000
M205 X8 Y8
G1 F2700 X171.713 Y190.72 E191.44034
M204 S3000
M205 X10 Y10
G0 F6000 X172.505 Y190.72
M204 S1000
M205 X8 Y8
G1 F2700 X193.064 Y211.279 E193.75541
M204 S3000
M205 X10 Y10
G0 F6000 X193.856 Y211.279
M204 S1000
M205 X8 Y8
G1 F2700 X173.297 Y190.72 E196.07049
M204 S3000
M205 X10 Y10
G0 F6000 X174.088 Y190.72
M204 S1000
M205 X8 Y8
G1 F2700 X194.648 Y211.279 E198.38562
M204 S3000
M205 X10 Y10
G0 F6000 X195.44 Y211.279
M204 S1000
M205 X8 Y8
G1 F2700 X174.88 Y190.72 E200.70075
M204 S3000
M205 X10 Y10
G0 F6000 X175.672 Y190.72
M204 S1000
M205 X8 Y8
G1 F2700 X196.232 Y211.279 E203.01588
M204 S3000
M205 X10 Y10
G0 F6000 X197.023 Y211.279
M204 S1000
M205 X8 Y8
G1 F2700 X176.464 Y190.72 E205.33096
M204 S3000
M205 X10 Y10
G0 F6000 X177.256 Y190.72
M204 S1000
M205 X8 Y8
G1 F2700 X197.815 Y211.279 E207.64603
M204 S3000
M205 X10 Y10
G0 F6000 X198.607 Y211.279
M204 S1000
M205 X8 Y8
G1 F2700 X178.048 Y190.72 E209.96111
M204 S3000
M205 X10 Y10
G0 F6000 X178.84 Y190.72
M204 S1000
M205 X8 Y8
G1 F2700 X199.399 Y211.279 E212.27618
M204 S3000
M205 X10 Y10
G0 F6000 X200.191 Y211.279
M204 S1000
M205 X8 Y8
G1 F2700 X179.632 Y190.72 E214.59126
M204 S3000
M205 X10 Y10
G0 F6000 X180.424 Y190.72
M204 S1000
M205 X8 Y8
G1 F2700 X200.983 Y211.279 E216.90634
M204 S3000
M205 X10 Y10
G0 F6000 X201.775 Y211.279
M204 S1000
M205 X8 Y8
G1 F2700 X181.216 Y190.72 E219.22141
M204 S3000
M205 X10 Y10
G0 F6000 X182.008 Y190.72
M204 S1000
M205 X8 Y8
G1 F2700 X202.567 Y211.279 E221.53649
M204 S3000
M205 X10 Y10
G0 F6000 X203.359 Y211.279
M204 S1000
M205 X8 Y8
G1 F2700 X182.8 Y190.72 E223.85156
M204 S3000
M205 X10 Y10
G0 F6000 X183.592 Y190.72
M204 S1000
M205 X8 Y8
G1 F2700 X204.151 Y211.279 E226.16664
M204 S3000
M205 X10 Y10
G0 F6000 X204.943 Y211.279
M204 S1000
M205 X8 Y8
G1 F2700 X184.384 Y190.72 E228.48171
M204 S3000
M205 X10 Y10
G0 F6000 X185.176 Y190.72
M204 S1000
M205 X8 Y8
G1 F2700 X205.735 Y211.279 E230.79679
M204 S3000
M205 X10 Y10
G0 F6000 X206.527 Y211.279
M204 S1000
M205 X8 Y8
G1 F2700 X185.968 Y190.72 E233.11186
M204 S3000
M205 X10 Y10
G0 F6000 X186.76 Y190.72
M204 S1000
M205 X8 Y8
G1 F2700 X207.319 Y211.279 E235.42694
M204 S3000
M205 X10 Y10
G0 F6000 X208.111 Y211.279
M204 S1000
M205 X8 Y8
G1 F2700 X187.552 Y190.72 E237.74201
M204 S3000
M205 X10 Y10
G0 F6000 X188.344 Y190.72
M204 S1000
M205 X8 Y8
G1 F2700 X208.903 Y211.279 E240.05709
M204 S3000
M205 X10 Y10
G0 F6000 X209.695 Y211.279
M204 S1000
M205 X8 Y8
G1 F2700 X189.136 Y190.72 E242.37217
M204 S3000
M205 X10 Y10
G0 F6000 X189.928 Y190.72
M204 S1000
M205 X8 Y8
G1 F2700 X210.487 Y211.279 E244.68724
M204 S3000
M205 X10 Y10
G0 F6000 X211.279 Y211.279
M204 S1000
M205 X8 Y8
G1 F2700 X190.72 Y190.72 E247.00232
M204 S3000
M205 X10 Y10
G0 F6000 X191.512 Y190.72
M204 S1000
M205 X8 Y8
G1 F2700 X212.071 Y211.279 E249.31739
M204 S3000
M205 X10 Y10
G0 F6000 X212.863 Y211.279
M204 S1000
M205 X8 Y8
G1 F2700 X192.304 Y190.72 E251.63247
M204 S3000
M205 X10 Y10
G0 F6000 X193.096 Y190.72
M204 S1000
M205 X8 Y8
G1 F2700 X213.655 Y211.279 E253.94754
M204 S3000
M205 X10 Y10
G0 F6000 X214.447 Y211.279
M204 S1000
M205 X8 Y8
G1 F2700 X193.887 Y190.72 E256.26267
M204 S3000
M205 X10 Y10
G0 F6000 X194.679 Y190.72
M204 S1000
M205 X8 Y8
G1 F2700 X215.239 Y211.279 E258.57781
M204 S3000
M205 X10 Y10
G0 F6000 X216.031 Y211.279
M204 S1000
M205 X8 Y8
G1 F2700 X195.471 Y190.72 E260.89294
M204 S3000
M205 X10 Y10
G0 F6000 X196.263 Y190.72
M204 S1000
M205 X8 Y8
G1 F2700 X216.822 Y211.279 E263.20801
M204 S3000
M205 X10 Y10
G0 F6000 X217.614 Y211.279
M204 S1000
M205 X8 Y8
G1 F2700 X197.055 Y190.72 E265.52309
M204 S3000
M205 X10 Y10
G0 F6000 X197.847 Y190.72
M204 S1000
M205 X8 Y8
G1 F2700 X218.406 Y211.279 E267.83816
M204 S3000
M205 X10 Y10
G0 F6000 X219.198 Y211.279
M204 S1000
M205 X8 Y8
G1 F2700 X198.639 Y190.72 E270.15324
M204 S3000
M205 X10 Y10
G0 F6000 X199.431 Y190.72
M204 S1000
M205 X8 Y8
G1 F2700 X219.99 Y211.279 E272.46831
M204 S3000
M205 X10 Y10
G0 F6000 X220.782 Y211.279
M204 S1000
M205 X8 Y8
G1 F2700 X200.223 Y190.72 E274.78339
M204 S3000
M205 X10 Y10
G0 F6000 X201.015 Y190.72
M204 S1000
M205 X8 Y8
G1 F2700 X221.574 Y211.279 E277.09846
M204 S3000
M205 X10 Y10
G0 F6000 X222.366 Y211.279
M204 S1000
M205 X8 Y8
G1 F2700 X201.807 Y190.72 E279.41354
M204 S3000
M205 X10 Y10
G0 F6000 X202.599 Y190.72
M204 S1000
M205 X8 Y8
G1 F2700 X223.158 Y211.279 E281.72862
M204 S3000
M205 X10 Y10
G0 F6000 X223.95 Y211.279
M204 S1000
M205 X8 Y8
G1 F2700 X203.391 Y190.72 E284.04369
M204 S3000
M205 X10 Y10
G0 F6000 X204.183 Y190.72
M204 S1000
M205 X8 Y8
G1 F2700 X224.742 Y211.279 E286.35877
M204 S3000
M205 X10 Y10
G0 F6000 X225.534 Y211.279
M204 S1000
M205 X8 Y8
G1 F2700 X204.975 Y190.72 E288.67384
M204 S3000
M205 X10 Y10
G0 F6000 X205.767 Y190.72
M204 S1000
M205 X8 Y8
G1 F2700 X226.326 Y211.279 E290.98892
M204 S3000
M205 X10 Y10
G0 F6000 X227.118 Y211.279
M204 S1000
M205 X8 Y8
G1 F2700 X206.559 Y190.72 E293.30399
M204 S3000
M205 X10 Y10
G0 F6000 X207.351 Y190.72
M204 S1000
M205 X8 Y8
G1 F2700 X227.91 Y211.279 E295.61907
M204 S3000
M205 X10 Y10
G0 F6000 X228.702 Y211.279
M204 S1000
M205 X8 Y8
G1 F2700 X208.143 Y190.72 E297.93414
M204 S3000
M205 X10 Y10
G0 F6000 X208.935 Y190.72
