;FLAVOR:Marlin
;TIME:11271
;Filament used: 22.6355m
;Layer height: 0.3
;MINX:153.6
;MINY:181.6
;MINZ:0.3
;MAXX:248.4
;MAXY:220.4
;MAXZ:135
;Generated with Cura_SteamEngine 5.2.1
M140 S60
M105
M190 S60
M104 S180
M105
M109 S180
M82 ;absolute extrusion mode
; Anycubic Kobra Max
G28 ;Home
G1 Z15.0 F1200 ;Move the platform down 15mm
;Prime the extruder
G92 E0
G1 F200 E3
G92 E0
G92 E0
G92 E0
G1 F2400 E-6
;LAYER_COUNT:450
;LAYER:0
M107
M204 S3000
M205 X10 Y10
G1 F1200 Z0.375
G0 F6000 X155.016 Y182.784 Z0.375
M204 S1000
M205 X8 Y8
;TYPE:SKIRT
G1 F1200 Z0.3
G1 F2400 E0
G1 X155.477 Y182.411 E0.04722
G1 X155.984 Y182.103 E0.09445
G1 X156.527 Y181.866 E0.14163
G1 X157.098 Y181.704 E0.18889
G1 X157.979 Y181.6 E0.25952
G1 X243.356 Y181.6 E7.05765
G1 X244.054 Y181.61 E7.11323
G1 X244.645 Y181.659 E7.16045
G1 X245.224 Y181.786 E7.20765
G1 X245.781 Y181.99 E7.25488
G1 X246.305 Y182.268 E7.30211
G1 X246.787 Y182.613 E7.34931
G1 X247.219 Y183.02 E7.39657
G1 X247.591 Y183.481 E7.44374
G1 X247.899 Y183.988 E7.49097
G1 X248.135 Y184.532 E7.53819
G1 X248.296 Y185.102 E7.58535
G1 X248.4 Y185.979 E7.65567
G1 X248.4 Y215.318 E9.99178
G1 X248.391 Y216.045 E10.04967
G1 X248.343 Y216.637 E10.09697
G1 X248.217 Y217.216 E10.14415
G1 X248.014 Y217.773 E10.19135
G1 X247.738 Y218.298 E10.23858
G1 X247.394 Y218.781 E10.2858
G1 X246.988 Y219.213 E10.333
G1 X246.527 Y219.586 E10.38022
G1 X246.021 Y219.895 E10.42743
G1 X245.478 Y220.132 E10.4746
G1 X244.907 Y220.295 E10.52188
G1 X244.021 Y220.4 E10.59293
G1 X158.65 Y220.4 E17.39057
G1 X157.952 Y220.391 E17.44615
G1 X157.361 Y220.343 E17.49337
G1 X156.782 Y220.216 E17.54057
G1 X156.225 Y220.013 E17.58777
G1 X155.7 Y219.737 E17.635
G1 X155.218 Y219.392 E17.6822
G1 X154.786 Y218.986 E17.7294
G1 X154.412 Y218.525 E17.77667
G1 X154.104 Y218.019 E17.82384
G1 X153.867 Y217.475 E17.87108
G1 X153.705 Y216.905 E17.91827
G1 X153.6 Y216.017 E17.98947
G1 X153.6 Y186.614 E20.33067
G1 X153.609 Y185.949 E20.38363
G1 X153.657 Y185.358 E20.43084
G1 X153.784 Y184.779 E20.47804
G1 X153.988 Y184.222 E20.52527
G1 X154.265 Y183.698 E20.57247
G1 X154.61 Y183.216 E20.61966
G1 X155.016 Y182.784 E20.66687
M204 S3000
M205 X10 Y10
G0 F6000 X155.562 Y183.05
M204 S1000
M205 X8 Y8
G1 F2400 X156.013 Y182.729 E20.71095
G1 X156.505 Y182.476 E20.755
G1 X157.029 Y182.296 E20.79912
G1 X157.574 Y182.194 E20.84326
G1 X158.33 Y182.16 E20.90352
G1 X243.348 Y182.16 E27.67306
G1 X244.046 Y182.17 E27.72864
G1 X244.598 Y182.218 E27.77276
G1 X245.137 Y182.345 E27.81686
G1 X245.652 Y182.548 E27.86093
G1 X246.133 Y182.823 E27.90505
G1 X246.569 Y183.164 E27.94912
G1 X246.952 Y183.565 E27.99328
G1 X247.273 Y184.016 E28.03735
G1 X247.526 Y184.509 E28.08148
G1 X247.705 Y185.033 E28.12557
G1 X247.807 Y185.578 E28.16972
G1 X247.84 Y186.33 E28.22965
G1 X247.84 Y215.312 E30.53734
G1 X247.831 Y216.039 E30.59523
G1 X247.784 Y216.59 E30.63926
G1 X247.658 Y217.13 E30.68341
G1 X247.456 Y217.646 E30.72754
G1 X247.182 Y218.127 E30.77161
G1 X246.842 Y218.564 E30.8157
G1 X246.442 Y218.947 E30.8598
G1 X245.991 Y219.269 E30.90392
G1 X245.499 Y219.523 E30.94801
G1 X244.975 Y219.703 E30.99213
G1 X244.431 Y219.806 E31.03621
G1 X243.67 Y219.84 E31.09687
G1 X158.657 Y219.84 E37.86601
G1 X157.959 Y219.831 E37.92159
G1 X157.408 Y219.784 E37.96562
G1 X156.868 Y219.658 E38.00977
G1 X156.353 Y219.455 E38.05385
G1 X155.871 Y219.181 E38.098
G1 X155.435 Y218.84 E38.14207
G1 X155.052 Y218.44 E38.18617
G1 X154.73 Y217.989 E38.23029
G1 X154.477 Y217.497 E38.27434
G1 X154.297 Y216.973 E38.31846
G1 X154.194 Y216.429 E38.36254
G1 X154.161 Y215.762 E38.41572
G1 X154.16 Y186.622 E40.73598
G1 X154.169 Y185.957 E40.78894
G1 X154.217 Y185.405 E40.83306
G1 X154.343 Y184.866 E40.87713
G1 X154.546 Y184.35 E40.92128
G1 X154.82 Y183.869 E40.96536
G1 X155.161 Y183.433 E41.00944
G1 X155.562 Y183.05 E41.05359
M204 S3000
M205 X10 Y10
G0 F6000 X156.103 Y183.339
M204 S1000
M205 X8 Y8
G1 F2400 X156.542 Y183.075 E41.09438
G1 X157.016 Y182.883 E41.1351
G1 X157.514 Y182.766 E41.17583
G1 X158.018 Y182.721 E41.21612
G1 X243.34 Y182.72 E48.00987
G1 X244.038 Y182.73 E48.06545
G1 X244.548 Y182.778 E48.10624
G1 X245.044 Y182.904 E48.14699
G1 X245.514 Y183.105 E48.18769
G1 X245.948 Y183.378 E48.22851
G1 X246.333 Y183.714 E48.2692
G1 X246.662 Y184.106 E48.30995
G1 X246.926 Y184.545 E48.35074
G1 X247.118 Y185.02 E48.39154
G1 X247.234 Y185.518 E48.43225
G1 X247.279 Y186.018 E48.47222
G1 X247.28 Y215.305 E50.80419
G1 X247.271 Y216.032 E50.86209
G1 X247.224 Y216.541 E50.90279
G1 X247.099 Y217.038 E50.94359
G1 X246.899 Y217.509 E50.98434
G1 X246.627 Y217.943 E51.02512
G1 X246.292 Y218.329 E51.06582
G1 X245.9 Y218.658 E51.10657
G1 X245.462 Y218.923 E51.14733
G1 X244.988 Y219.116 E51.18808
G1 X244.489 Y219.233 E51.22889
G1 X243.984 Y219.279 E51.26927
G1 X158.665 Y219.28 E58.06277
G1 X157.967 Y219.271 E58.11835
G1 X157.457 Y219.224 E58.15913
G1 X156.961 Y219.099 E58.19986
G1 X156.49 Y218.898 E58.24064
G1 X156.056 Y218.626 E58.28142
G1 X155.67 Y218.29 E58.32217
G1 X155.341 Y217.898 E58.36292
G1 X155.076 Y217.46 E58.40368
G1 X154.884 Y216.986 E58.4444
G1 X154.767 Y216.488 E58.48514
G1 X154.721 Y215.981 E58.52567
G1 X154.72 Y186.63 E60.86274
G1 X154.729 Y185.965 E60.91569
G1 X154.776 Y185.455 E60.95647
G1 X154.902 Y184.959 E60.99722
G1 X155.103 Y184.488 E61.038
G1 X155.375 Y184.054 E61.07878
G1 X155.711 Y183.668 E61.11953
G1 X156.103 Y183.339 E61.16028
M204 S3000
M205 X10 Y10
G1 F2400 E55.16028
;MESH:Gehaeuse-V01.stl
G0 F6000 X158.414 Y185.335
G0 X158.414 Y186.414
G0 X159.4 Y187.4
M204 S1000
M205 X8 Y8
;TYPE:WALL-INNER
G1 F2400 E61.16028
G1 F2700 X159.4 Y214.6 E63.32607
G1 X242.6 Y214.6 E69.95085
G1 X242.6 Y201 E71.03375
G1 X242.6 Y187.4 E72.11665
G1 X159.4 Y187.4 E78.74143
M204 S3000
M205 X10 Y10
G0 F6000 X158.84 Y186.84
M204 S1000
M205 X8 Y8
G1 F2700 X158.84 Y215.16 E80.9964
G1 X243.16 Y215.16 E87.71036
G1 X243.16 Y201 E88.83785
G1 X243.16 Y186.84 E89.96533
G1 X158.84 Y186.84 E96.67929
M204 S3000
M205 X10 Y10
G0 F6000 X158.28 Y186.28
M204 S1000
M205 X8 Y8
;TYPE:WALL-OUTER
G1 F2700 X158.28 Y215.72 E99.02345
G1 X243.72 Y215.72 E105.82659
G1 X243.72 Y201 E106.99866
G1 X243.72 Y186.28 E108.17074
G1 X158.28 Y186.28 E114.97388
M204 S3000
M205 X10 Y10
G0 F6000 X158.28 Y186.48
G0 X158.87 Y186.87
G0 X159.94 Y187.94
M204 S1000
M205 X8 Y8
;TYPE:SKIN
G1 F2700 X159.94 Y214.06 E117.05368
G1 X242.06 Y214.06 E123.59246
G1 X242.06 Y201 E124.63236
G1 X242.06 Y187.94 E125.67226
G1 X159.94 Y187.94 E132.21105
M204 S3000
M205 X10 Y10
G0 F6000 X160.717 Y213.778
M204 S1000
M205 X8 Y8
G1 F2700 X160.219 Y213.281 E132.26707
M204 S3000
M205 X10 Y10
G0 F6000 X160.219 Y212.489
M204 S1000
M205 X8 Y8
G1 F2700 X161.509 Y213.778 E132.41227
M204 S3000
M205 X10 Y10
G0 F6000 X162.301 Y213.778
M204 S1000
M205 X8 Y8
G1 F2700 X160.219 Y211.697 E132.64666
M204 S3000
M205 X10 Y10
G0 F6000 X160.219 Y210.905
M204 S1000
M205 X8 Y8
G1 F2700 X163.093 Y213.778 E132.97024
M204 S3000
M205 X10 Y10
G0 F6000 X163.885 Y213.778
M204 S1000
M205 X8 Y8
G1 F2700 X160.219 Y210.113 E133.383
M204 S3000
M205 X10 Y10
G0 F6000 X160.219 Y209.321
M204 S1000
M205 X8 Y8
G1 F2700 X164.677 Y213.778 E133.88494
M204 S3000
M205 X10 Y10
G0 F6000 X165.469 Y213.778
M204 S1000
M205 X8 Y8
G1 F2700 X160.219 Y208.529 E134.47607
M204 S3000
M205 X10 Y10
G0 F6000 X160.219 Y207.737
M204 S1000
M205 X8 Y8
G1 F2700 X166.261 Y213.778 E135.15638
M204 S3000
M205 X10 Y10
G0 F6000 X167.053 Y213.778
M204 S1000
M205 X8 Y8
G1 F2700 X160.219 Y206.945 E135.92588
M204 S3000
M205 X10 Y10
G0 F6000 X160.219 Y206.153
M204 S1000
M205 X8 Y8
G1 F2700 X167.845 Y213.778 E136.78456
M204 S3000
M205 X10 Y10
G0 F6000 X168.637 Y213.778
M204 S1000
M205 X8 Y8
G1 F2700 X160.219 Y205.361 E137.73242
M204 S3000
M205 X10 Y10
G0 F6000 X160.219 Y204.569
M204 S1000
M205 X8 Y8
G1 F2700 X169.429 Y213.778 E138.76947
M204 S3000
M205 X10 Y10
G0 F6000 X170.221 Y213.778
M204 S1000
M205 X8 Y8
G1 F2700 X160.219 Y203.777 E139.8957
M204 S3000
M205 X10 Y10
G0 F6000 X160.219 Y202.985
M204 S1000
M205 X8 Y8
G1 F2700 X171.013 Y213.778 E141.11112
M204 S3000
M205 X10 Y10
G0 F6000 X171.805 Y213.778
M204 S1000
M205 X8 Y8
G1 F2700 X160.219 Y202.193 E142.41572
M204 S3000
M205 X10 Y10
G0 F6000 X160.219 Y201.401
M204 S1000
M205 X8 Y8
G1 F2700 X172.596 Y213.778 E143.80945
M204 S3000
M205 X10 Y10
G0 F6000 X173.388 Y213.778
M204 S1000
M205 X8 Y8
G1 F2700 X160.219 Y200.609 E145.29237
M204 S3000
M205 X10 Y10
G0 F6000 X160.219 Y199.817
M204 S1000
M205 X8 Y8
G1 F2700 X174.18 Y213.778 E146.86446
M204 S3000
M205 X10 Y10
G0 F6000 X174.972 Y213.778
M204 S1000
M205 X8 Y8
G1 F2700 X160.219 Y199.025 E148.52575
M204 S3000
M205 X10 Y10
G0 F6000 X160.219 Y198.233
M204 S1000
M205 X8 Y8
G1 F2700 X175.764 Y213.778 E150.27621
M204 S3000
M205 X10 Y10
G0 F6000 X176.556 Y213.778
M204 S1000
M205 X8 Y8
G1 F2700 X160.219 Y197.441 E152.11586
M204 S3000
M205 X10 Y10
G0 F6000 X160.219 Y196.649
M204 S1000
M205 X8 Y8
G1 F2700 X177.348 Y213.778 E154.0447
M204 S3000
M205 X10 Y10
G0 F6000 X178.14 Y213.778
M204 S1000
M205 X8 Y8
G1 F2700 X160.219 Y195.857 E156.06272
M204 S3000
M205 X10 Y10
G0 F6000 X160.219 Y195.066
M204 S1000
M205 X8 Y8
G1 F2700 X178.932 Y213.778 E158.16987
M204 S3000
M205 X10 Y10
G0 F6000 X179.724 Y213.778
M204 S1000
M205 X8 Y8
G1 F2700 X160.219 Y194.274 E160.3662
M204 S3000
M205 X10 Y10
G0 F6000 X160.219 Y193.482
M204 S1000
M205 X8 Y8
G1 F2700 X180.516 Y213.778 E162.65172
M204 S3000
M205 X10 Y10
G0 F6000 X181.308 Y213.778
M204 S1000
M205 X8 Y8
G1 F2700 X160.219 Y192.69 E165.02642
M204 S3000
M205 X10 Y10
G0 F6000 X160.219 Y191.898
M204 S1000
M205 X8 Y8
G1 F2700 X182.1 Y213.778 E167.4903
M204 S3000
M205 X10 Y10
G0 F6000 X182.892 Y213.778
M204 S1000
M205 X8 Y8
G1 F2700 X160.219 Y191.106 E170.04337
M204 S3000
M205 X10 Y10
G0 F6000 X160.219 Y190.314
M204 S1000
M205 X8 Y8
G1 F2700 X183.684 Y213.778 E172.68562
M204 S3000
M205 X10 Y10
G0 F6000 X184.476 Y213.778
M204 S1000
M205 X8 Y8
G1 F2700 X160.219 Y189.522 E175.41706
M204 S3000
M205 X10 Y10
G0 F6000 X160.219 Y188.73
M204 S1000
M205 X8 Y8
G1 F2700 X185.268 Y213.778 E178.23768
M204 S3000
M205 X10 Y10
G0 F6000 X186.06 Y213.778
M204 S1000
M205 X8 Y8
G1 F2700 X160.501 Y188.219 E181.11579
M204 S3000
M205 X10 Y10
G0 F6000 X161.293 Y188.219
M204 S1000
M205 X8 Y8
G1 F2700 X186.852 Y213.778 E183.9939
M204 S3000
M205 X10 Y10
G0 F6000 X187.644 Y213.778
M204 S1000
M205 X8 Y8
G1 F2700 X162.085 Y188.219 E186.872
M204 S3000
M205 X10 Y10
G0 F6000 X162.877 Y188.219
M204 S1000
M205 X8 Y8
G1 F2700 X188.436 Y213.778 E189.75011
M204 S3000
M205 X10 Y10
G0 F6000 X189.228 Y213.778
M204 S1000
M205 X8 Y8
G1 F2700 X163.669 Y188.219 E192.62822
M204 S3000
M205 X10 Y10
G0 F6000 X164.461 Y188.219
M204 S1000
M205 X8 Y8
G1 F2700 X190.02 Y213.778 E195.50633
M204 S3000
M205 X10 Y10
G0 F6000 X190.812 Y213.778
M204 S1000
M205 X8 Y8
G1 F2700 X165.252 Y188.219 E198.38449
M204 S3000
M205 X10 Y10
G0 F6000 X166.044 Y188.219
M204 S1000
M205 X8 Y8
G1 F2700 X191.604 Y213.778 E201.26265
M204 S3000
M205 X10 Y10
G0 F6000 X192.395 Y213.778
M204 S1000
M205 X8 Y8
G1 F2700 X166.836 Y188.219 E204.14076
M204 S3000
M205 X10 Y10
G0 F6000 X167.628 Y188.219
M204 S1000
M205 X8 Y8
G1 F2700 X193.187 Y213.778 E207.01887
M204 S3000
M205 X10 Y10
G0 F6000 X193.979 Y213.778
M204 S1000
M205 X8 Y8
G1 F2700 X168.42 Y188.219 E209.89698
M204 S3000
M205 X10 Y10
G0 F6000 X169.212 Y188.219
M204 S1000
M205 X8 Y8
G1 F2700 X194.771 Y213.778 E212.77508
M204 S3000
M205 X10 Y10
G0 F6000 X195.563 Y213.778
M204 S1000
M205 X8 Y8
G1 F2700 X170.004 Y188.219 E215.65319
M204 S3000
M205 X10 Y10
G0 F6000 X170.796 Y188.219
M204 S1000
M205 X8 Y8
G1 F2700 X196.355 Y213.778 E218.5313
M204 S3000
M205 X10 Y10
G0 F6000 X197.147 Y213.778
M204 S1000
M205 X8 Y8
G1 F2700 X171.588 Y188.219 E221.40941
M204 S3000
M205 X10 Y10
G0 F6000 X172.38 Y188.219
M204 S1000
M205 X8 Y8
G1 F2700 X197.939 Y213.778 E224.28751
M204 S3000
M205 X10 Y10
G0 F6000 X198.731 Y213.778
M204 S1000
M205 X8 Y8
G1 F2700 X173.172 Y188.219 E227.16562
M204 S3000
M205 X10 Y10
G0 F6000 X173.964 Y188.219
M204 S1000
M205 X8 Y8
G1 F2700 X199.523 Y213.778 E230.04373
M204 S3000
M205 X10 Y10
G0 F6000 X200.315 Y213.778
M204 S1000
M205 X8 Y8
G1 F2700 X174.756 Y188.219 E232.92184
M204 S3000
M205 X10 Y10
G0 F6000 X175.548 Y188.219
M204 S1000
M205 X8 Y8
G1 F2700 X201.108 Y213.779 E235.80006
M204 S3000
M205 X10 Y10
G0 F6000 X201.9 Y213.779
M204 S1000
M205 X8 Y8
G1 F2700 X176.34 Y188.219 E238.67828
M204 S3000
M205 X10 Y10
G0 F6000 X177.132 Y188.219
M204 S1000
M205 X8 Y8
G1 F2700 X202.692 Y213.779 E241.5565
M204 S3000
M205 X10 Y10
G0 F6000 X203.484 Y213.779
M204 S1000
M205 X8 Y8
G1 F2700 X177.924 Y188.219 E244.43472
M204 S3000
M205 X10 Y10
G0 F6000 X178.716 Y188.219
M204 S1000
M205 X8 Y8
G1 F2700 X204.276 Y213.779 E247.31294
M204 S3000
M205 X10 Y10
G0 F6000 X205.068 Y213.779
M204 S1000
M205 X8 Y8
G1 F2700 X179.508 Y188.219 E250.19116
M204 S3000
M205 X10 Y10
G0 F6000 X180.3 Y188.219
M204 S1000
M205 X8 Y8
G1 F2700 X205.859 Y213.779 E253.06932
M204 S3000
M205 X10 Y10
G0 F6000 X206.651 Y213.779
M204 S1000
M205 X8 Y8
G1 F2700 X181.092 Y188.219 E255.94749
M204 S3000
M205 X10 Y10
G0 F6000 X181.884 Y188.219
M204 S1000
M205 X8 Y8
G1 F2700 X207.443 Y213.779 E258.82565
M204 S3000
M205 X10 Y10
G0 F6000 X208.235 Y213.779
M204 S1000
M205 X8 Y8
G1 F2700 X182.676 Y188.219 E261.70381
M204 S3000
M205 X10 Y10
G0 F6000 X183.468 Y188.219
M204 S1000
M205 X8 Y8
G1 F2700 X209.027 Y213.779 E264.58198
M204 S3000
M205 X10 Y10
G0 F6000 X209.819 Y213.779
M204 S1000
M205 X8 Y8
G1 F2700 X184.26 Y188.219 E267.46014
M204 S3000
M205 X10 Y10
G0 F6000 X185.051 Y188.219
M204 S1000
M205 X8 Y8
G1 F2700 X210.611 Y213.779 E270.33836
M204 S3000
M205 X10 Y10
G0 F6000 X211.403 Y213.779
M204 S1000
M205 X8 Y8
G1 F2700 X185.843 Y188.219 E273.21658
M204 S3000
M205 X10 Y10
G0 F6000 X186.635 Y188.219
M204 S1000
M205 X8 Y8
G1 F2700 X212.195 Y213.779 E276.0948
M204 S3000
M205 X10 Y10
G0 F6000 X212.987 Y213.779
M204 S1000
M205 X8 Y8
G1 F2700 X187.427 Y188.219 E278.97302
M204 S3000
M205 X10 Y10
G0 F6000 X188.219 Y188.219
M204 S1000
M205 X8 Y8
G1 F2700 X213.779 Y213.779 E281.85124
M204 S3000
M205 X10 Y10
G0 F6000 X214.571 Y213.779
M204 S1000
M205 X8 Y8
G1 F2700 X189.011 Y188.219 E284.72946
M204 S3000
M205 X10 Y10
G0 F6000 X189.803 Y188.219
M204 S1000
M205 X8 Y8
G1 F2700 X215.363 Y213.779 E287.60768
M204 S3000
M205 X10 Y10
G0 F6000 X216.155 Y213.779
M204 S1000
M205 X8 Y8
G1 F2700 X190.595 Y188.219 E290.4859
M204 S3000
M205 X10 Y10
G0 F6000 X191.387 Y188.219
M204 S1000
M205 X8 Y8
G1 F2700 X216.947 Y213.779 E293.36412
M204 S3000
M205 X10 Y10
G0 F6000 X217.739 Y213.779
M204 S1000
M205 X8 Y8
G1 F2700 X192.179 Y188.219 E296.24234
M204 S3000
M205 X10 Y10
G0 F6000 X192.971 Y188.219
M204 S1000
M205 X8 Y8
G1 F2700 X218.531 Y213.779 E299.12056
M204 S3000
M205 X10 Y10
G0 F6000 X219.323 Y213.779
M204 S1000
M205 X8 Y8
G1 F2700 X193.763 Y188.219 E301.99878
M204 S3000
M205 X10 Y10
G0 F6000 X194.555 Y188.219
M204 S1000
M205 X8 Y8
G1 F2700 X220.115 Y213.779 E304.877
M204 S3000
M205 X10 Y10
G0 F6000 X220.907 Y213.779
M204 S1000
M205 X8 Y8
G1 F2700 X195.347 Y188.219 E307.75522
M204 S3000
M205 X10 Y10
G0 F6000 X196.139 Y188.219
M204 S1000
M205 X8 Y8
G1 F2700 X221.699 Y213.779 E310.63344
M204 S3000
M205 X10 Y10
G0 F6000 X222.491 Y213.779
M204 S1000
M205 X8 Y8
G1 F2700 X196.931 Y188.219 E313.51166
M204 S3000
M205 X10 Y10
G0 F6000 X197.723 Y188.219
M204 S1000
M205 X8 Y8
G1 F2700 X223.283 Y213.779 E316.38988
M204 S3000
M205 X10 Y10
G0 F6000 X224.075 Y213.779
M204 S1000
M205 X8 Y8
G1 F2700 X198.515 Y188.219 E319.2681
M204 S3000
M205 X10 Y10
G0 F6000 X199.307 Y188.219
M204 S1000
M205 X8 Y8
G1 F2700 X224.867 Y213.779 E322.14632
M204 S3000
M205 X10 Y10
G0 F6000 X225.658 Y213.779
M204 S1000
M205 X8 Y8
G1 F2700 X200.099 Y188.219 E325.02449
M204 S3000
M205 X10 Y10
G0 F6000 X200.891 Y188.219
M204 S1000
M205 X8 Y8
G1 F2700 X226.45 Y213.779 E327.90265
M204 S3000
M205 X10 Y10
G0 F6000 X227.242 Y213.779
M204 S1000
M205 X8 Y8
G1 F2700 X201.683 Y188.219 E330.78081
M204 S3000
M205 X10 Y10
G0 F6000 X202.475 Y188.219
M204 S1000
M205 X8 Y8
G1 F2700 X228.034 Y213.779 E333.65898
M204 S3000
M205 X10 Y10
G0 F6000 X228.826 Y213.779
M204 S1000
M205 X8 Y8
